!!!COM: Beethoven, Ludwig van
!!!CDT: 1770///-1827///
!!!ODT: 1823///-1824///
!!!OTL: String Quartet No. 12 in E-flat Major, Op. 127
!!!OPS: Op. 127
!!!OMV: Mvmt. 3
!!!OMD: Scherzando vivace - Presto
!!!PDT: 1826
!!!PPP: Mainz
!!!PPR: B. Schott S&ouml;hne
!!!ODE: Dem F&uuml;rsten Nicolaus von Galitzin gewidmet
!!!MPD: 1825/03/06
**kern	**dynam	**kern	**dynam	**kern	**dynam	**kern	**dynam
*staff4	*staff4	*staff3	*staff3	*staff2	*staff2	*staff1	*staff1
*Icello	*Icello	*Iviola	*Iviola	*Ivioln	*Ivioln	*Ivioln	*Ivioln
*>[I,A,A1,A,A2,B,B1,B,B2,C,D,D1,D,D2,E]	*>[I,A,A1,A,A2,B,B1,B,B2,C,D,D1,D,D2,E]	*>[I,A,A1,A,A2,B,B1,B,B2,C,D,D1,D,D2,E]	*>[I,A,A1,A,A2,B,B1,B,B2,C,D,D1,D,D2,E]	*>[I,A,A1,A,A2,B,B1,B,B2,C,D,D1,D,D2,E]	*>[I,A,A1,A,A2,B,B1,B,B2,C,D,D1,D,D2,E]	*>[I,A,A1,A,A2,B,B1,B,B2,C,D,D1,D,D2,E]	*>[I,A,A1,A,A2,B,B1,B,B2,C,D,D1,D,D2,E]
*>norep[I,A,A2,B,B2,C,D,D2,E]	*>norep[I,A,A2,B,B2,C,D,D2,E]	*>norep[I,A,A2,B,B2,C,D,D2,E]	*>norep[I,A,A2,B,B2,C,D,D2,E]	*>norep[I,A,A2,B,B2,C,D,D2,E]	*>norep[I,A,A2,B,B2,C,D,D2,E]	*>norep[I,A,A2,B,B2,C,D,D2,E]	*>norep[I,A,A2,B,B2,C,D,D2,E]
*>I	*>I	*>I	*>I	*>I	*>I	*>I	*>I
*clefF4	*clefF4	*clefC3	*clefC3	*clefG2	*clefG2	*clefG2	*clefG2
*k[b-e-a-]	*k[b-e-a-]	*k[b-e-a-]	*k[b-e-a-]	*k[b-e-a-]	*k[b-e-a-]	*k[b-e-a-]	*k[b-e-a-]
*E-:	*E-:	*E-:	*E-:	*E-:	*E-:	*E-:	*E-:
*M3/4	*M3/4	*M3/4	*M3/4	*M3/4	*M3/4	*M3/4	*M3/4
*MM154	*MM154	*MM154	*MM154	*MM154	*MM154	*MM154	*MM154
=412-	=412-	=412-	=412-	=412-	=412-	=412-	=412-
8E-	.	8B- 8e-	.	8g 8b-	.	8G 8e- 8ee-	.
8r	.	8r	.	8r	.	8r	.
8BB-	.	8B- 8d	.	8f 8b-	.	8B- 8f 8dd	.
8r	.	8r	.	8r	.	8r	.
8E-	.	8B- 8e-	.	8g 8b-	.	8B- 8g 8ee-	.
8r	.	8r	.	8r	.	8r	.
=413	=413	=413	=413	=413	=413	=413	=413
4BB-	.	4B- 4d	.	4d 4b-	.	4d 4b- 4ff	.
8.r	.	4r	.	4r	.	4r	.
16BB-	pp	.	.	.	.	.	.
8C	.	4r	.	4r	.	4r	.
16r	.	.	.	.	.	.	.
16E-	.	.	.	.	.	.	.
=414!|:	=414!|:	=414!|:	=414!|:	=414!|:	=414!|:	=414!|:	=414!|:
*>A	*>A	*>A	*>A	*>A	*>A	*>A	*>A
4D	.	2.r	.	2.r	.	2.r	.
8.r	.	.	.	.	.	.	.
16D	.	.	.	.	.	.	.
8E-	.	.	.	.	.	.	.
16r	.	.	.	.	.	.	.
16G	.	.	.	.	.	.	.
=415	=415	=415	=415	=415	=415	=415	=415
4F	.	2.r	.	2.r	.	2.r	.
8.r	.	.	.	.	.	.	.
16F	.	.	.	.	.	.	.
8G	.	.	.	.	.	.	.
16r	.	.	.	.	.	.	.
16B-	.	.	.	.	.	.	.
=416	=416	=416	=416	=416	=416	=416	=416
(2A	.	2.r	.	2.r	.	2.r	.
4B-)	.	.	.	.	.	.	.
=417	=417	=417	=417	=417	=417	=417	=417
(4c	.	4r	.	2.r	.	2.r	.
4D)	.	8.r	.	.	.	.	.
.	.	16cc	pp	.	.	.	.
4E	.	8b-	.	.	.	.	.
.	.	16r	.	.	.	.	.
.	.	16g	.	.	.	.	.
=418	=418	=418	=418	=418	=418	=418	=418
(2F	.	4a-	.	2.r	.	2.r	.
.	.	8.r	.	.	.	.	.
.	.	16a-	.	.	.	.	.
4G)	.	8g	.	.	.	.	.
.	.	16r	.	.	.	.	.
.	.	16e	.	.	.	.	.
=419	=419	=419	=419	=419	=419	=419	=419
(2A-	.	4f	.	2.r	.	2.r	.
.	.	8.r	.	.	.	.	.
.	.	16f	.	.	.	.	.
4A)	.	8e-	.	.	.	.	.
.	.	16r	.	.	.	.	.
.	.	16c	.	.	.	.	.
=420	=420	=420	=420	=420	=420	=420	=420
(2B-	.	(2d	.	2.r	.	2.r	.
4e-)	.	4c)	.	.	.	.	.
=421	=421	=421	=421	=421	=421	=421	=421
4d	.	4B-	.	(2b-	pp	2.r	.
4r	.	4r	.	.	.	.	.
4r	.	4r	.	4a-)	.	.	.
=422	=422	=422	=422	=422	=422	=422	=422
(2g	.	(2E-	.	4g	.	2.r	.
.	.	.	.	4r	.	.	.
4f)	.	4D)	.	4r	.	.	.
=423	=423	=423	=423	=423	=423	=423	=423
4e-	.	4C	.	(2ee-	.	2.r	.
4r	.	4r	.	.	.	.	.
4r	.	4r	.	4a)	.	.	.
=424	=424	=424	=424	=424	=424	=424	=424
(2D	.	(2F	.	4b-	.	2.r	.
.	.	.	.	4r	.	.	.
4C)	.	4E-)	.	4r	.	.	.
=425	=425	=425	=425	=425	=425	=425	=425
4BB-	.	4D	.	(2dd	.	(2bb-	.
4r	.	4r	.	.	.	.	.
4r	.	4r	.	4ff	.	4aa-)	.
=426	=426	=426	=426	=426	=426	=426	=426
(2EE-	.	(2G	.	(2g	.	4gg	.
.	.	.	.	.	.	4r	.
4DD)	.	4F)	.	4b-	.	4r	.
=427	=427	=427	=427	=427	=427	=427	=427
8CC	.	4E-	.	(4a	.	(2eee-	.
16r	.	.	.	.	.	.	.
16C	.	.	.	.	.	.	.
4C-	.	4.A-	.	8.a-)	.	.	.
.	.	.	.	16e-	.	.	.
4BB-	.	.	.	8f	.	4ddd)	.
.	.	8F	.	16r	.	.	.
.	.	.	.	16a-	.	.	.
=428	=428	=428	=428	=428	=428	=428	=428
8E-	f	4E-	f	4G 4g	f	4eee-	.
16r	.	.	.	.	.	.	.
16E-	p	.	.	.	.	.	.
4e-	.	(4e-	p	8.r	.	4r	.
.	.	.	.	16g	p	.	.
4r	.	4f)	.	8a-	.	4r	.
.	.	.	.	16r	.	.	.
.	.	.	.	16cc	.	.	.
=429	=429	=429	=429	=429	=429	=429	=429
8.r	.	(2g	.	4b-	.	2.r	.
16E-	.	.	.	.	.	.	.
4e-	.	.	.	8.r	.	.	.
.	.	.	.	16b-	.	.	.
4r	.	4a-)	.	8cc	.	.	.
.	.	.	.	16r	.	.	.
.	.	.	.	16ee-	.	.	.
=430	=430	=430	=430	=430	=430	=430	=430
8f	.	(2a-	.	(2dd	.	2.r	.
16r	.	.	.	.	.	.	.
16F	.	.	.	.	.	.	.
8f	.	.	.	.	.	.	.
8B-	.	.	.	.	.	.	.
8e-	.	4g)	.	4ee-)	.	.	.
16r	.	.	.	.	.	.	.
16B-	.	.	.	.	.	.	.
=431	=431	=431	=431	=431	=431	=431	=431
8d	.	4f	.	4ff	.	4r	.
16r	.	.	.	.	.	.	.
16BB-	.	.	.	.	.	.	.
4B-	.	(4d	.	(4f	.	8.r	.
.	.	.	.	.	.	16fff	p
4r	.	4e-)	.	4g)	.	8eee-	.
.	.	.	.	.	.	16r	.
.	.	.	.	.	.	16ccc	.
=432	=432	=432	=432	=432	=432	=432	=432
8B-	.	(2f	.	(2a-	.	4ddd	.
16r	.	.	.	.	.	.	.
16BB-	.	.	.	.	.	.	.
(4B-	.	.	.	.	.	8.r	.
.	.	.	.	.	.	16ddd	.
4c)	.	4e-)	.	4a)	.	8ccc	.
.	.	.	.	.	.	16r	.
.	.	.	.	.	.	16aa	.
=433	=433	=433	=433	=433	=433	=433	=433
(2d-	.	(4f	.	[2.b-	.	4bb-	.
.	.	4e	.	.	.	8.r	.
.	.	.	.	.	.	16bb-	.
4d)	.	8f	.	.	.	8aa-	.
.	.	8a-)	.	.	.	16r	.
.	.	.	.	.	.	16ff	.
=434	=434	=434	=434	=434	=434	=434	=434
4e-	.	(4g	.	2.b-_	.	(2gg	.
8E-	.	4e-	.	.	.	.	.
16r	.	.	.	.	.	.	.
16B-	.	.	.	.	.	.	.
8A-	.	4d)	.	.	.	4ff)	.
16r	.	.	.	.	.	.	.
16F	.	.	.	.	.	.	.
=435	=435	=435	=435	=435	=435	=435	=435
(2G	.	(4e-	.	4b-]	.	4ee-	.
.	.	[2B-)	.	(4b-	.	8.r	.
.	.	.	.	.	.	16bb-	.
4F)	.	.	.	4dd)	.	8aa-	.
.	.	.	.	.	.	16r	.
.	.	.	.	.	.	16ff	.
=436	=436	=436	=436	=436	=436	=436	=436
4E-	.	(4B-]	.	4ee-	.	(2gg	.
8.r	.	4e-	.	[2b-	.	.	.
16B-	.	.	.	.	.	.	.
8A-	.	4d)	.	.	.	4ff)	.
16r	.	.	.	.	.	.	.
16F	.	.	.	.	.	.	.
=437	=437	=437	=437	=437	=437	=437	=437
4G	p	(4e-	p	(2b-]	p	(2ee-	p
8.r	.	4g	.	.	.	.	.
16GG	.	.	.	.	.	.	.
8G	.	4f)	.	4b)	.	4dd)	.
16r	.	.	.	.	.	.	.
16G	.	.	.	.	.	.	.
=438	=438	=438	=438	=438	=438	=438	=438
4A-	f	4f	f	4c	f	4cc	f
4A-	.	4c	.	4cc	.	4ff	.
4G	.	4G 4d	.	4b	.	4gg	.
=439	=439	=439	=439	=439	=439	=439	=439
4r	.	4r	.	4r	.	4r	.
4c	p	4g	p	4cc	p	4ee-	p
4r	.	4r	.	4r	.	4r	.
=440	=440	=440	=440	=440	=440	=440	=440
4r	.	4r	.	4r	.	4r	.
4F	.	4a	.	4cc	.	4ff	.
4r	.	4r	.	4r	.	4r	.
=441	=441	=441	=441	=441	=441	=441	=441
8B-	f	8d	f	4f	f	4dd	f
8A-	.	8c	.	.	.	.	.
8G	.	8B	.	4dd	.	4ff	.
8B	.	8d	.	.	.	.	.
8A	.	8c	.	4dd	.	4gg	.
8G	.	8B	.	.	.	.	.
=442	=442	=442	=442	=442	=442	=442	=442
8c	p	8e-	p	8ee-	p	8.r	.
8e-	.	8cc	.	8g	.	.	.
.	.	.	.	.	.	(16ee-	p
8c	.	8ee-	.	8e-	.	4eee-)	.
8e-	.	8cc	.	8g	.	.	.
8d	.	8dd	.	8f	.	4r	.
8c	.	8ee-	.	8e-	.	.	.
=443	=443	=443	=443	=443	=443	=443	=443
*	*	*	*	*^	*	*	*
8A	.	8e-	.	8cc	8f	.	8.r	.
8c	.	8c	.	8ee-	8f	.	.	.
.	.	.	.	.	.	.	(16ff	.
8A	.	8e-	.	8cc	8f	.	4fff)	.
8c	.	8c	.	8ee-	8f	.	.	.
8B-	.	8d	.	8dd	8f	.	4r	.
8A	.	8e-	.	8cc	8f	.	.	.
*	*	*	*	*v	*v	*	*	*
=444	=444	=444	=444	=444	=444	=444	=444
8e-	.	8f	.	8cc	.	8gg-	.
8d	.	8f	.	8b-	.	16r	.
.	.	.	.	.	.	(16ff	.
8c	.	8e-	.	8a	.	8gg)	.
8B-	.	8d	.	8g	.	16r	.
.	.	.	.	.	.	(16ff	.
8A	.	8c	.	8f	.	8aa)	.
8G	.	8B-	.	8e-	.	16r	.
.	.	.	.	.	.	(16ff	.
=445	=445	=445	=445	=445	=445	=445	=445
8F	.	8A	.	8d	.	8bb-)	.
8E-	.	8G	.	8c	.	16r	.
.	.	.	.	.	.	(16ff	.
8D	.	8F	.	8B-	.	8ccc)	.
8C	.	8E-	.	8A	.	16r	.
.	.	.	.	.	.	(16ff	.
8BB-	.	8D	.	8G	.	8ddd)	.
8AA	.	8C	.	8f	.	16r	.
.	.	.	.	.	.	(16ff	.
=446	=446	=446	=446	=446	=446	=446	=446
8GG	f	8B-	f	8e-	f	8eee-)	f
8FF	.	8A	.	8e-	.	16r	.
.	.	.	.	.	.	(16ff	.
8f	.	8A	.	8e-	.	8eee-)	.
8F	.	8c	.	8e-	.	16r	.
.	.	.	.	.	.	16fff	.
8F	.	8c	.	8ee-	.	8ggg	.
8FF	.	8c	.	8ee-	.	16r	.
.	.	.	.	.	.	16aaa	.
=447	=447	=447	=447	=447	=447	=447	=447
*>A1	*>A1	*>A1	*>A1	*>A1	*>A1	*>A1	*>A1
4BB-	.	4B-	.	4dd	.	4bbb-	.
8B-	.	4b-	.	8B-	.	8B-	.
16r	.	.	.	8r	.	8r	.
16BB-	pp	.	.	.	.	.	.
8C	.	4r	.	4r	.	4r	.
16r	.	.	.	.	.	.	.
16E-	.	.	.	.	.	.	.
=448:|!	=448:|!	=448:|!	=448:|!	=448:|!	=448:|!	=448:|!	=448:|!
*>A2	*>A2	*>A2	*>A2	*>A2	*>A2	*>A2	*>A2
4BB-	.	4B-	.	4dd	.	4bbb-	.
8B-	.	8b-	.	8B-	.	8B-	.
16r	.	16r	ff	16r	.	16r	.
16BB	ff	16B	.	16B	ff	16B	ff
8C	.	8c	.	8c	.	8c	.
16r	.	16r	.	16r	.	16r	.
16E-	.	16e-	.	16e-	.	16e-	.
=449!|:	=449!|:	=449!|:	=449!|:	=449!|:	=449!|:	=449!|:	=449!|:
*>B	*>B	*>B	*>B	*>B	*>B	*>B	*>B
8CC	.	8C	.	8c	.	8c	.
16r	.	16r	.	16r	.	16r	.
16DD	.	16D	.	16d	.	16d	.
8FF	.	8F	.	8f	.	8f	.
16r	.	16r	.	16r	.	16r	.
16EE-	.	16E-	.	16e-	.	16e-	.
8FF	.	8F	.	8f	.	8f	.
16r	.	16r	.	16r	.	16r	.
16AA-	.	16A-	.	16a-	.	16a-	.
=450	=450	=450	=450	=450	=450	=450	=450
8GG	.	8G	.	8g	.	8g	.
16r	.	16r	.	16r	.	16r	.
16AA	.	16A	.	16a	.	16a	.
8C	.	8c	.	8cc	.	8cc	.
16r	.	16r	.	16r	.	16r	.
16BB	.	16B	.	16b	.	16b	.
8C	.	8c	.	8cc	.	8cc	.
16r	.	16r	.	16r	.	16r	.
16E-	.	16e-	.	16ee-	.	16ee-	.
=451	=451	=451	=451	=451	=451	=451	=451
8D	.	8d	.	8dd	.	8dd	.
16r	.	16r	.	16r	.	16r	.
16E-	.	16e-	.	16ee-	.	16ee-	.
8F	.	8f	.	8ff	.	8ff	.
16r	.	16r	.	16r	.	16r	.
16E	.	16e	.	16ee	.	16ee	.
8F	.	8f	.	8ff	.	8ff	.
16r	.	16r	.	16r	.	16r	.
16F#	.	16f#	.	16f#	.	16ff#	.
=452	=452	=452	=452	=452	=452	=452	=452
8GG	.	8G	.	8g	.	8gg	.
16r	.	16r	.	16r	.	16r	.
16GG	.	16G	.	16g	p	16gg	.
8G	.	8g	.	8gg	.	8ggg	.
8BB	p	8r	.	8r	.	16r	.
.	.	.	.	.	.	16gg	p
8D	.	4r	.	4r	.	8ff	.
8G	.	.	.	.	.	16r	.
.	.	.	.	.	.	16dd	.
=453	=453	=453	=453	=453	=453	=453	=453
(8C	.	2.r	.	8.r	.	4ee-	.
8G	.	.	.	.	.	.	.
.	.	.	.	16e-	.	.	.
8c)	.	.	.	4ee-	.	8.r	.
8G	.	.	.	.	.	.	.
.	.	.	.	.	.	16ee-	.
8B	.	.	.	4r	.	8dd	.
8G	.	.	.	.	.	16r	.
.	.	.	.	.	.	16b	.
=454	=454	=454	=454	=454	=454	=454	=454
(8C	.	8.r	.	2.r	.	4cc	.
8G	.	.	.	.	.	.	.
.	.	16G	p	.	.	.	.
8e-)	.	4C	.	.	.	8.r	.
8G	.	.	.	.	.	.	.
.	.	.	.	.	.	16aa-	.
8C	.	4r	.	.	.	8gg	.
8G	.	.	.	.	.	16r	.
.	.	.	.	.	.	16ee-	.
=455	=455	=455	=455	=455	=455	=455	=455
(8BB	.	2.r	.	8.r	.	4ff	.
8G	.	.	.	.	.	.	.
.	.	.	.	16g	.	.	.
8d)	.	.	.	4ff	.	8.r	.
8G	.	.	.	.	.	.	.
.	.	.	.	.	.	16ff	.
8C	.	.	.	4r	.	8ee-	.
8G	.	.	.	.	.	16r	.
.	.	.	.	.	.	16cc	.
=456	=456	=456	=456	=456	=456	=456	=456
(8BB	.	8.r	.	2.r	.	4dd	.
8G	.	.	.	.	.	.	.
.	.	16d	.	.	.	.	.
8d)	.	4G	.	.	.	8.r	.
8G	.	.	.	.	.	.	.
.	.	.	.	.	.	16gg	.
8BB	.	4r	.	.	.	8ff	.
8G	.	.	.	.	.	16r	.
.	.	.	.	.	.	16dd	.
=457	=457	=457	=457	=457	=457	=457	=457
(8C	.	2.r	.	8.r	.	4ee-	.
8G	.	.	.	.	.	.	.
.	.	.	.	16g	.	.	.
8c)	.	.	.	4ee-	.	8.r	.
8G	.	.	.	.	.	.	.
.	.	.	.	.	.	16ee-	.
8F	.	.	.	4r	.	8dd	.
8G	.	.	.	.	.	16r	.
.	.	.	.	.	.	16b	.
=458	=458	=458	=458	=458	=458	=458	=458
8E-	.	8.r	.	4r	.	4cc	.
8G	.	.	.	.	.	.	.
.	.	16c	.	.	.	.	.
8E	.	8g	.	8.r	.	4r	.
8G	.	16r	.	.	.	.	.
.	.	16C	.	16g	.	.	.
8C	.	8G	.	8b-	.	4r	.
8E	.	8G	.	16r	.	.	.
.	.	.	.	16cc	.	.	.
=459	=459	=459	=459	=459	=459	=459	=459
4FF	p	(8F	p	4a-	p	8.r	.
.	.	8c	.	.	.	.	.
.	.	.	.	.	.	16cc	p
4r	.	8a-)	.	8.r	.	4ccc	.
.	.	8c	.	.	.	.	.
.	.	.	.	16a-	.	.	.
4r	.	8F	.	8b-	.	4r	.
.	.	8c	.	16r	.	.	.
.	.	.	.	16dd-	.	.	.
=460	=460	=460	=460	=460	=460	=460	=460
8.r	.	(8F	.	4cc	.	2.r	.
.	.	8c	.	.	.	.	.
16F	.	.	.	.	.	.	.
4c	.	8a-)	.	8.r	.	.	.
.	.	8c	.	.	.	.	.
.	.	.	.	16e	.	.	.
4r	.	8F	.	8f	.	.	.
.	.	8c	.	16r	.	.	.
.	.	.	.	16a-	.	.	.
=461	=461	=461	=461	=461	=461	=461	=461
2.r	.	(8E	.	4g	.	8.r	.
.	.	8c	.	.	.	.	.
.	.	.	.	.	.	16cc	.
.	.	8g)	.	8.r	.	4ccc	.
.	.	8c	.	.	.	.	.
.	.	.	.	16g	.	.	.
.	.	8F	.	8a-	.	4r	.
.	.	8c	.	16r	.	.	.
.	.	.	.	16cc	.	.	.
=462	=462	=462	=462	=462	=462	=462	=462
8.r	.	8E	.	8b-	.	8.r	.
.	.	8c	.	16r	.	.	.
16C	.	.	.	16cc	.	16cc	.
8F	.	8F	.	8a-	.	8aa-	.
16r	.	16r	.	16r	.	8a-	.
16A-	.	16f	.	16a-	.	.	.
8G-	.	8e-	.	8b-	.	8c	.
16r	.	16r	.	16r	.	8a-	.
16E-	.	16c	.	16cc	.	.	.
=463	=463	=463	=463	=463	=463	=463	=463
4F	p	4A-	p	4dd-	p	(8d-	p
.	.	.	.	.	.	8a-	.
8.r	.	8.r	.	8.r	.	8ff)	.
.	.	.	.	.	.	8a-	.
16F	.	16A-	.	16dd-	.	.	.
8E-	.	8G-	.	8ee-	.	8c	.
16r	.	16r	.	16r	.	8a-	.
16C	.	16E-	.	16gg-	.	.	.
=464	=464	=464	=464	=464	=464	=464	=464
4D-	.	4F	.	4ff	.	(8d-	.
.	.	.	.	.	.	8a-	.
8.r	.	8.r	.	8.r	.	8ff)	.
.	.	.	.	.	.	8a-	.
16B-	.	16g-	.	16cc	.	.	.
8A-	.	8f	.	8dd-	.	8d-	.
16r	.	16r	.	16r	.	8a-	.
16F	.	16d-	.	16ff	.	.	.
=465	=465	=465	=465	=465	=465	=465	=465
4G-	.	4A- 4a-	.	4ee-	.	(8c	.
.	.	.	.	.	.	8a-	.
8.r	.	8.r	.	8.r	.	8ee-)	.
.	.	.	.	.	.	8a-	.
16G-	.	16c	.	16ee-	.	.	.
8F	.	8d-	.	8ff	.	8d-	.
16r	.	16r	.	16r	.	8a-	.
16D-	.	16A-	.	16aa-	.	.	.
=466	=466	=466	=466	=466	=466	=466	=466
4E-	.	4A-	.	4gg-	.	(8c	.
.	.	.	.	.	.	8a-	.
8.r	.	8.r	.	4r	.	8gg-)	.
.	.	.	.	.	.	16r	.
16AA-	.	16C	.	.	.	16aa-	.
8BB-	.	8D-	.	4r	.	8gg-	.
16r	.	16r	.	.	.	16r	.
16C	.	16A-	.	.	.	16ee-	.
=467	=467	=467	=467	=467	=467	=467	=467
4D-	.	4A-	.	8.r	.	4ff	.
.	.	.	.	16A-	.	.	.
8.r	.	8.r	.	4a-	.	8.r	.
16D-	.	16F	.	.	.	16ff	.
8E-	.	8G-	.	4r	.	8ee-	.
16r	.	16r	.	.	.	16r	.
16G-	.	16A-	.	.	.	16cc	.
=468	=468	=468	=468	=468	=468	=468	=468
4F	.	4A-	.	8.r	.	4dd	.
.	.	.	.	16B-	.	.	.
8.r	.	8.r	.	4b-	.	8.r	.
16C	.	16E-	.	.	.	16bb-	.
8D	.	8F	.	4r	.	8aa-	.
16r	.	16r	.	.	.	16r	.
16F	.	16A-	.	.	.	16ff	.
=469	=469	=469	=469	=469	=469	=469	=469
4E-	.	4G-	.	8.r	.	4gg-	.
.	.	.	.	16B-	.	.	.
8.r	.	8.r	.	4b-	.	8.r	.
16E-	.	16G-	.	.	.	16gg-	.
8F	.	8A-	.	4r	.	8ff	.
16r	.	16r	.	.	.	16r	.
16A-	.	16B-	.	.	.	16dd	.
=470	=470	=470	=470	=470	=470	=470	=470
8G-	.	8B-	.	4r	.	8ee-	.
16r	.	16r	.	.	.	16r	.
16D	.	16F	.	.	.	16ccc-	.
8E-	.	8G-	.	8.r	.	8bb-	.
16r	.	16r	.	.	.	16r	.
16G-	.	16B-	.	16b-	.	16gg-	.
8F	.	8A-	.	8cc-	.	8aa-	.
16r	.	16r	.	16r	.	16r	.
16F	.	16A-	.	16cc-	.	16aa-	.
=471	=471	=471	=471	=471	=471	=471	=471
8G-	.	8B-	.	8b-	.	8gg-	.
16r	.	16r	.	16r	.	16r	.
16B-	.	16d-	.	16g-	.	16ee-	.
8A-	.	8c-	.	8a-	.	8ff	.
16r	.	16r	.	16r	.	16r	.
16E-	.	16G-	.	16dd-	.	16ddd-	.
8F	.	8A-	.	8dd-	.	8ccc-	.
16r	.	16r	.	16r	.	16r	.
16F	.	16d-	.	16cc-	.	16aa-	.
=472	=472	=472	=472	=472	=472	=472	=472
8G-	ff	8d-	ff	8b-	ff	8bb-	ff
16r	.	16r	.	16r	.	16r	.
16B-	.	16g-	.	16dd-	.	16gg-	.
8G-	.	8d-	.	8b-	.	8bb-	.
16r	.	16r	.	16r	.	16r	.
16B-	.	16g-	.	16dd-	.	16gg-	.
8G-	.	8d-	.	8b-	.	8bb-	.
16r	.	16r	.	16r	.	16r	.
16B-	.	16g-	.	16dd-	.	16gg-	.
=473	=473	=473	=473	=473	=473	=473	=473
8E-	.	8c-	.	8g-	.	8ccc-	.
16r	.	16r	.	16r	.	16r	.
16G-	.	16e-	.	16cc-	.	16gg-	.
8E-	.	8c-	.	8g-	.	8ccc-	.
16r	.	16r	.	16r	.	16r	.
16G-	.	16e-	.	16cc-	.	16gg-	.
8E-	.	8c-	.	8g-	.	8ccc-	.
16r	.	16r	.	16r	.	16r	.
16G-	.	16e-	.	16cc-	.	16gg-	.
=474	=474	=474	=474	=474	=474	=474	=474
8D-	.	8B-	.	8g-	.	8bb-	.
16r	.	16r	.	16r	.	16r	.
16G-	.	16d-	.	16b-	.	16gg-	.
8D-	.	8B-	.	8g-	.	8bb-	.
16r	.	16r	.	16r	.	16r	.
16G-	.	16d-	.	16b-	.	16gg-	.
8D-	.	8B-	.	8g-	.	8bb-	.
16r	.	16r	.	16r	.	16r	.
16G-	.	16d-	.	16b-	.	16gg-	.
=475	=475	=475	=475	=475	=475	=475	=475
8D-	.	8A-	.	8f	.	8aa-	.
16r	.	16r	.	16r	.	16r	.
16A-	.	16f	.	16dd-	.	16ff	.
8D-	.	8A-	.	8f	.	8aa-	.
16r	.	16r	.	16r	.	16r	.
16A-	.	16f	.	16dd-	.	16ff	.
8D-	.	8A-	.	8f	.	8aa-	.
16r	.	16r	.	16r	.	16r	.
16A-	.	16f	.	16dd-	.	16ff	.
=476	=476	=476	=476	=476	=476	=476	=476
8F#	pp	8A	pp	8a	pp	8aa	pp
16r	.	16r	.	16r	.	16r	.
16A	.	16f#	.	16cc#	.	16ff#	.
8F#	.	8A	.	8a	.	8aa	.
16r	.	16r	.	16r	.	16r	.
16A	.	16f#	.	16cc#	.	16ff#	.
8F#	.	8A	.	8a	.	8aa	.
16r	.	16r	.	16r	.	16r	.
16A	.	16f#	.	16cc#	.	16ff#	.
=477	=477	=477	=477	=477	=477	=477	=477
8F#	.	8A	.	8a	.	8aa	.
16r	.	16r	.	16r	.	16r	.
16A	.	16f#	.	16dd	.	16ff#	.
8F#	.	8A	.	8a	.	8aa	.
16r	.	16r	.	16r	.	16r	.
16A	.	16f#	.	16dd	.	16ff#	.
8F#	.	8A	.	8a	.	8aa	.
16r	.	16r	.	16r	.	16r	.
16A	.	16f#	.	16dd	.	16ff#	.
=478	=478	=478	=478	=478	=478	=478	=478
8D	f	8D 8d	f	8d 8dd	f	8ddd	f
16r	.	16r	.	16r	.	16r	.
16DD	.	16D	.	16d	.	16d	.
8EE	.	8E	.	8e	.	8e	.
16r	.	16r	.	16r	.	16r	.
16GG	.	16G	.	16g	.	16g	.
8FF#	.	8F#	.	8f#	.	8f#	.
16r	.	16r	.	16r	.	16r	.
16GG	.	16G	.	16g	.	16g	.
=479	=479	=479	=479	=479	=479	=479	=479
8BB-	.	8B-	.	8b-	.	8b-	.
16r	.	16r	.	16r	.	16r	.
16AA	.	16A	.	16a	.	16a	.
8BB-	.	8B-	.	8b-	.	8b-	.
16r	.	16r	.	16r	.	16r	.
16D	.	16d	.	16dd	.	16dd	.
8C	.	8c	.	8cc	.	8cc	.
16r	.	16r	.	16r	.	16r	.
16D	.	16d	.	16dd	.	16dd	.
=480	=480	=480	=480	=480	=480	=480	=480
8E-	.	8e-	.	8ee-	.	8ee-	.
16r	.	16r	.	16r	.	16r	.
16D	.	16d	.	16dd	.	16dd	.
8E	.	8e	.	8ee	.	8ee	.
16r	.	16r	.	16r	.	16r	.
16G	.	16g	.	16gg	.	16gg	.
8F#	.	8f#	.	8ff#	.	8ff#	.
16r	.	16r	.	16r	.	16r	.
16G	.	16g	.	16gg	.	16gg	.
=481	=481	=481	=481	=481	=481	=481	=481
8B-	.	8b-	.	8b-	.	8bb-	.
16r	.	16r	.	16r	.	16r	.
16A	.	16a	.	16a	.	16aa	.
8c	.	8cc	.	8cc	.	8ccc	.
16r	.	16r	.	16r	.	16r	.
16d	.	16dd	.	16dd	.	16ddd	.
4e-	.	4ee-	.	4ee-	.	4eee-	.
=482	=482	=482	=482	=482	=482	=482	=482
*M2/4	*M2/4	*M2/4	*M2/4	*M2/4	*M2/4	*M2/4	*M2/4
4r	.	4r	.	2r	.	2r	.
(4CC	p	(4C	p	.	.	.	.
=483	=483	=483	=483	=483	=483	=483	=483
4DD	.	4D	.	2r	.	2r	.
4FF#)	.	4F#)	.	.	.	.	.
=484	=484	=484	=484	=484	=484	=484	=484
(4GG	.	(4G	.	2r	.	2r	.
4BB-)	.	4B-)	.	.	.	.	.
=485	=485	=485	=485	=485	=485	=485	=485
(8AA	.	(8A	.	2r	.	2r	.
16BB-	.	16B-	.	.	.	.	.
16AA)	.	16A)	.	.	.	.	.
8GG	.	8G	.	.	.	.	.
8BB-	.	8B-	.	.	.	.	.
=486	=486	=486	=486	=486	=486	=486	=486
8E-	.	8e-	.	2r	.	2r	.
8D	.	8d	.	.	.	.	.
8F#	.	8f#	.	.	.	.	.
8G	.	8g	.	.	.	.	.
=487	=487	=487	=487	=487	=487	=487	=487
*M3/4	*M3/4	*M3/4	*M3/4	*M3/4	*M3/4	*M3/4	*M3/4
*MM154	*MM154	*MM154	*MM154	*MM154	*MM154	*MM154	*MM154
[2.c	pp	[2.e-	pp	[2.f# [2.a	pp	4r	.
.	.	.	.	.	.	8.r	.
.	.	.	.	.	.	16eee-	pp
.	.	.	.	.	.	8ddd	.
.	.	.	.	.	.	16r	.
.	.	.	.	.	.	16bb	.
=488	=488	=488	=488	=488	=488	=488	=488
4c]	.	4e-]	.	4f#] 4a]	.	4ccc	.
4r	.	4r	.	8.r	.	4r	.
.	.	.	.	16B	.	.	.
4r	.	4r	.	8d	.	4r	.
.	.	.	.	16r	.	.	.
.	.	.	.	16e-	.	.	.
=489	=489	=489	=489	=489	=489	=489	=489
4r	.	4r	.	4f	.	2.r	.
(4GG	.	(4G	.	4r	.	.	.
4BB)	.	4B)	.	4r	.	.	.
=490	=490	=490	=490	=490	=490	=490	=490
*M2/4	*M2/4	*M2/4	*M2/4	*M2/4	*M2/4	*M2/4	*M2/4
(4CC	p	(4C	p	2r	.	2r	.
4EE-)	.	4E-)	.	.	.	.	.
=491	=491	=491	=491	=491	=491	=491	=491
(8DD	.	(8D	.	2r	.	2r	.
16EE-	.	16E-	.	.	.	.	.
16DD)	.	16D)	.	.	.	.	.
8CC	.	8C	.	.	.	.	.
8EE-	.	8E-	.	.	.	.	.
=492	=492	=492	=492	=492	=492	=492	=492
8AA-	.	8A-	.	2r	.	2r	.
8GG	.	8G	.	.	.	.	.
8G	.	8B	.	.	.	.	.
8F	.	8c	.	.	.	.	.
=493	=493	=493	=493	=493	=493	=493	=493
*M3/4	*M3/4	*M3/4	*M3/4	*M3/4	*M3/4	*M3/4	*M3/4
*MM144	*MM144	*MM144	*MM144	*MM144	*MM144	*MM144	*MM144
[2.E	pp	[2.c [2.g	pp	2.r	.	4r	.
.	.	.	.	.	.	8.r	.
.	.	.	.	.	.	16ddd	pp
.	.	.	.	.	.	8ccc	.
.	.	.	.	.	.	16r	.
.	.	.	.	.	.	16gg	.
=494	=494	=494	=494	=494	=494	=494	=494
2.E]	.	2.c_ 2.g_	.	4r	.	4bb-	.
.	.	.	.	8.r	.	4r	.
.	.	.	.	16c	pp	.	.
.	.	.	.	8g	.	4r	.
.	.	.	.	16r	.	.	.
.	.	.	.	16a-	.	.	.
=495	=495	=495	=495	=495	=495	=495	=495
(2EE	.	4.c] 4.g]	.	4b-	.	2.r	.
.	.	.	.	4r	.	.	.
.	.	16r	.	.	.	.	.
.	.	16E	.	.	.	.	.
4DD-)	.	8G	.	4r	.	.	.
.	.	16r	.	.	.	.	.
.	.	16A-	.	.	.	.	.
=496	=496	=496	=496	=496	=496	=496	=496
4CC	p	4B-	.	4r	.	4r	.
4r	.	8.r	.	8.r	.	8.r	.
.	.	16e	.	16g	.	16ccc	.
(4GG	.	8g	.	8cc	.	8bb-	.
.	.	16r	.	16r	.	16r	.
.	.	16cc	.	16ee	.	16gg	.
=497	=497	=497	=497	=497	=497	=497	=497
2FF	.	4cc	.	4ff	.	4aa-	.
.	.	8.r	.	4r	.	4r	.
.	.	16C	.	.	.	.	.
4DD-)	.	8F	.	4r	.	4r	.
.	.	16r	.	.	.	.	.
.	.	16G	.	.	.	.	.
=498	=498	=498	=498	=498	=498	=498	=498
2CC	p	4A-	.	4r	.	4r	.
.	.	8.r	.	8.r	.	8.r	.
.	.	16C	.	16f	.	16aa-	.
(4BB-	.	8D-	.	8e	.	8gg	.
.	.	16r	.	16r	.	16r	.
.	.	16d-	.	16g	.	16ee	.
=499	=499	=499	=499	=499	=499	=499	=499
2AA-)	.	4c	.	4f	.	4ff	.
.	.	8.r	.	8.r	.	8.r	.
.	.	16F	.	16A-	.	16fff	.
(4GG	.	8G	.	8B-	.	8eee-	.
.	.	16r	.	16r	.	16r	.
.	.	16e-	.	16b-	.	16ccc	.
=500	=500	=500	=500	=500	=500	=500	=500
2FF)	.	4a-	.	4b-	.	4ddd	.
.	.	8.r	.	8.r	.	8.r	.
.	.	16a-	.	16b-	.	16ddd	.
(4EE-	.	8g	.	8b-	.	8eee-	.
.	.	16r	.	16r	.	16r	.
.	.	16g	.	16b-	.	16eee-	.
=501	=501	=501	=501	=501	=501	=501	=501
8DD)	f	8f	f	8b-	f	8fff	f
16r	.	16r	.	16r	.	16r	.
16DD	.	16b-	.	16aa-	.	16fff	.
8EE-	.	8b-	.	8gg	.	8eee-	.
16r	.	8B-	.	8g	.	16r	.
16E-	.	.	.	.	.	16bb-	.
8F	.	8D	.	8a-	.	8aa-	.
16r	.	8B-	.	8d	.	16r	.
16A-	.	.	.	.	.	16ff	.
=502	=502	=502	=502	=502	=502	=502	=502
4G	.	8E-	.	4e-	.	8ee-	.
.	.	8B-	.	.	.	16r	.
.	.	.	.	.	.	16ee-	.
8.r	.	8E- 8G	.	8.r	.	4eee-	f
.	.	8E-	f	.	.	.	.
16G	f	.	.	16e-	f	.	.
8A-	.	8F	.	4ee-	.	4r	.
16r	.	8A-	.	.	.	.	.
16c	.	.	.	.	.	.	.
=503	=503	=503	=503	=503	=503	=503	=503
4B-	.	8G	.	4r	.	8.r	.
.	.	8g 8b-	.	.	.	.	.
.	.	.	.	.	.	16ee-	.
8.r	.	8G	.	8.r	.	4eee-	.
.	.	8G	.	.	.	.	.
16B-	.	.	.	16e-	.	.	.
8c	.	8A-	.	4ee-	.	4r	.
16r	.	8A	.	.	.	.	.
16e-	.	.	.	.	.	.	.
=504	=504	=504	=504	=504	=504	=504	=504
(2d	.	8B-	.	4r	.	8.r	.
.	.	8f	.	.	.	.	.
.	.	.	.	.	.	16b-	.
.	.	8F	.	8.r	.	4bb-	.
.	.	8B-	.	.	.	.	.
.	.	.	.	16B-	.	.	.
4e-)	.	8G	.	4b-	.	4r	.
.	.	8B-	.	.	.	.	.
=505	=505	=505	=505	=505	=505	=505	=505
4f	.	8A-	.	4r	.	8.r	.
.	.	8F	.	.	.	.	.
.	.	.	.	.	.	16b-	.
8r	.	8D	.	8.r	.	4bb-	.
8D	.	16r	.	.	.	.	.
.	.	16G	.	16ff	.	.	.
8G	.	4b-	.	8ee-	.	4r	.
8E-	.	.	.	16r	.	.	.
.	.	.	.	16cc	.	.	.
=506	=506	=506	=506	=506	=506	=506	=506
8BB-	.	8.r	.	4dd	.	8.r	.
8B-	.	.	.	.	.	.	.
.	.	16F	.	.	.	16A	.
8F	.	8d	.	8.r	.	8B-	.
8B-	.	16r	.	.	.	16r	.
.	.	16d	.	16dd	.	16f	.
8E-	.	4e-	.	8cc	.	4g-	.
8B-	.	.	.	16r	.	.	.
.	.	.	.	16a	.	.	.
=507	=507	=507	=507	=507	=507	=507	=507
8D-	.	8.r	.	4b-	.	2.r	.
8B-	.	.	.	.	.	.	.
.	.	16E	.	.	.	.	.
8D	.	8F	.	8.r	.	.	.
8B-	.	16r	.	.	.	.	.
.	.	16G	.	16b-	.	.	.
8F	.	4A-	.	8a-	.	.	.
8B-	.	.	.	16r	.	.	.
.	.	.	.	16f	.	.	.
=508	=508	=508	=508	=508	=508	=508	=508
8E-	.	2.r	.	(2g	.	8.r	.
8B-	.	.	.	.	.	.	.
.	.	.	.	.	.	16a	.
8G	.	.	.	.	.	8b-	.
8B-	.	.	.	.	.	16r	.
.	.	.	.	.	.	16ee-	.
8A-	.	.	.	4f)	.	4dd	.
8B-	.	.	.	.	.	.	.
=509	=509	=509	=509	=509	=509	=509	=509
8G	.	8.r	.	4e-	.	4r	.
8B-	.	.	.	.	.	.	.
.	.	16d	.	.	.	.	.
8E-	.	8e-	.	8r	.	8.r	.
8B-	.	16r	.	8e-	.	.	.
.	.	16g	.	.	.	16ee-	.
8BB-	.	8f	.	8d	.	8ff	.
8B-	.	16r	.	8dd	.	16r	.
.	.	16f	.	.	.	16aa-	.
=510	=510	=510	=510	=510	=510	=510	=510
8E-	.	4G 4g	.	8e-	.	4gg	.
16r	.	.	.	8ee-	.	.	.
16EE-	.	.	.	.	.	.	.
4E-	.	8.r	.	8e-	.	8.r	.
.	.	.	.	8ee-	.	.	.
.	.	16E-	.	.	.	16gg	.
4r	.	4e-	.	8f	.	8aa-	.
.	.	.	.	8ee-	.	16r	.
.	.	.	.	.	.	16ccc	.
=511	=511	=511	=511	=511	=511	=511	=511
8.r	.	4r	.	8g	.	4bb-	.
.	.	.	.	8ee-	.	.	.
16EE-	.	.	.	.	.	.	.
4E-	.	8.r	.	8g	.	8.r	.
.	.	.	.	8ee-	.	.	.
.	.	16E-	.	.	.	16bb-	.
4r	.	4e-	.	8a-	.	8ccc	.
.	.	.	.	8g	.	16r	.
.	.	.	.	.	.	16eee-	.
=512	=512	=512	=512	=512	=512	=512	=512
8.r	.	4r	.	8f	.	(2ddd	.
.	.	.	.	8b-	.	.	.
16BB-	.	.	.	.	.	.	.
4B-	.	8.r	.	8f	.	.	.
.	.	.	.	8b-	.	.	.
.	.	16B-	.	.	.	.	.
4r	.	4b-	.	8g	.	4eee-)	.
.	.	.	.	8b-	.	.	.
=513	=513	=513	=513	=513	=513	=513	=513
8.r	.	4r	.	4a-	.	4fff	.
16BB-	.	.	.	.	.	.	.
8B-	.	8.r	.	8.r	.	4r	.
16r	.	.	.	.	.	.	.
16F	.	16B-	.	16a-	.	.	.
8E-	.	4b-	.	8g	.	4r	.
16r	.	.	.	16r	.	.	.
16C	.	.	.	16e-	.	.	.
=514	=514	=514	=514	=514	=514	=514	=514
4D	.	8.r	.	4f	.	8.r	.
.	.	16F	.	.	.	16ccc	.
8.r	.	4f	.	8.r	.	8ddd	.
.	.	.	.	.	.	16r	.
16D	.	.	.	16b-	.	16fff	.
8C	.	4r	.	8cc	.	4eee-	.
16r	.	.	.	16r	.	.	.
16AA	.	.	.	16ee-	.	.	.
=515	=515	=515	=515	=515	=515	=515	=515
4BB-	.	4r	.	8dd	.	8.r	.
.	.	.	.	16r	.	.	.
.	.	.	.	16d	.	16aa	.
8.r	.	8.r	.	4dd	.	8bb-	.
.	.	.	.	.	.	16r	.
16BB-	.	16G	.	.	.	16ddd	.
8AA-	.	8A-	.	4r	.	4ccc	.
16r	.	16r	.	.	.	.	.
16FF	.	16c	.	.	.	.	.
=516	=516	=516	=516	=516	=516	=516	=516
(2GG	.	(4B-	.	8.r	.	8.r	.
.	.	.	.	16B-	.	16dd	.
.	.	4E-	.	8b-	.	8ee-	.
.	.	.	.	16r	.	16r	.
.	.	.	.	16B-	.	16ee-	.
4FF)	.	4D)	.	8b-	.	8ff	.
.	.	.	.	16r	.	16r	.
.	.	.	.	16B-	.	16aa-	.
=517	=517	=517	=517	=517	=517	=517	=517
4EE-	.	(2E-	.	8b-	.	(2gg	.
.	.	.	.	16r	.	.	.
.	.	.	.	16B-	.	.	.
8.r	.	.	.	8b-	.	.	.
.	.	.	.	16r	.	.	.
16BB-	.	.	.	16B-	.	.	.
8AA-	.	4F)	.	8b-	.	4aa-)	.
16r	.	.	.	16r	.	.	.
16FF	.	.	.	16B-	.	.	.
=518	=518	=518	=518	=518	=518	=518	=518
(2GG	.	(2E-	.	8b-	.	4bb-	.
.	.	.	.	16r	.	.	.
.	.	.	.	16B-	.	.	.
.	.	.	.	8b-	.	8.r	.
.	.	.	.	16r	.	.	.
.	.	.	.	16B-	.	16ee-	p
4FF)	p	4D)	p	8b-	.	8ff#	.
.	.	.	.	16r	.	16r	.
.	.	.	.	16B-	.	16aa-	.
=519	=519	=519	=519	=519	=519	=519	=519
4EE-	.	(2E-	.	8b-	.	(2gg	.
.	.	.	.	16r	.	.	.
.	.	.	.	16B-	.	.	.
8.r	.	.	.	8b-	.	.	.
.	.	.	.	16r	.	.	.
16BB-	.	.	.	16B-	.	.	.
8AA-	.	4F)	.	8b-	.	4aa-)	.
16r	.	.	.	16r	.	.	.
16FF	.	.	.	16B-	.	.	.
=520	=520	=520	=520	=520	=520	=520	=520
4GG	.	(4E-	.	8b-	.	(2bb-	.
.	.	.	.	16r	.	.	.
.	.	.	.	16G	.	.	.
8.r	.	4G	.	8b-	.	.	.
.	.	.	.	16r	.	.	.
16G	.	.	.	16G	.	.	.
8F	.	4d)	.	8b-	.	4bb-)	.
16r	.	.	.	16r	.	.	.
16D	.	.	.	16G	.	.	.
=521	=521	=521	=521	=521	=521	=521	=521
8C	.	8e-	.	8g	.	4ccc	.
16r	.	16r	.	16r	.	.	.
16c	.	16e-	.	16ee-	.	.	.
8B-	.	8e-	.	8dd-	.	4ddd-	.
16r	.	16r	.	16r	.	.	.
16B-	.	16e-	.	16dd-	.	.	.
8A-	.	8e-	.	8cc	.	4eee-	.
16r	.	16r	.	16r	.	.	.
16A-	.	16c	.	16cc	.	.	.
=522	=522	=522	=522	=522	=522	=522	=522
4A-	f	4c	f	4cc	f	4fff	f
4A-	.	4c	.	4ccc	.	4fff#	.
4G	.	4d	.	4dd 4bb	.	4ggg	.
=523	=523	=523	=523	=523	=523	=523	=523
2.r	.	4r	.	4r	.	4r	.
.	.	4cc	p	4gg	p	4eee-	p
.	.	4r	.	4r	.	4r	.
=524	=524	=524	=524	=524	=524	=524	=524
4r	.	4r	.	4r	.	4r	.
4c	p	4e-	.	4a 4ff	.	4fff	.
4r	.	4r	.	4r	.	4r	.
=525	=525	=525	=525	=525	=525	=525	=525
4B-	f	4d	f	4b- 4ff	f	4ddd	f
4d	.	4f	.	4b-	.	4bb-	.
4e	.	4g	.	4b- 4gg	.	4ccc	.
=526	=526	=526	=526	=526	=526	=526	=526
4r	.	4r	.	4r	.	4r	.
4f	p	4f	p	4cc	p	4aa-	p
4r	.	4r	.	4r	.	4r	.
=527	=527	=527	=527	=527	=527	=527	=527
4r	.	4r	.	4r	.	4r	.
4B-	.	4B- 4d	.	4f 4dd	.	4bb-	.
4r	.	4r	.	4r	.	4r	.
=528	=528	=528	=528	=528	=528	=528	=528
8e-	f	2.r	.	8g	f	4gg	f
8d-	.	.	.	8f	.	.	.
8c	.	.	.	8e-	.	4bb-	.
8e	.	.	.	8g	.	.	.
8d	.	.	.	8f	.	4ccc	.
8c	.	.	.	8e-	.	.	.
=529	=529	=529	=529	=529	=529	=529	=529
2.r	.	8A-	p	8c	p	8.r	.
.	.	8G	.	8B-	.	.	.
.	.	.	.	.	.	16a-	p
.	.	8F	.	8A-	.	4aa-	.
.	.	8A-	.	8c	.	.	.
.	.	8G	.	8B-	.	4r	.
.	.	8F	.	8A-	.	.	.
=530	=530	=530	=530	=530	=530	=530	=530
8d	p	8b-	.	8ff	.	8.r	.
8c	.	8b-	.	8ee-	.	.	.
.	.	.	.	.	.	16b-	.
8B-	.	8b-	.	8dd	.	4bb-	.
8d	.	8b-	.	8ff	.	.	.
8c	.	8b-	.	8ee-	.	4r	.
8B-	.	8b-	.	8dd	.	.	.
=531	=531	=531	=531	=531	=531	=531	=531
8B-	.	8a-	.	8ff	.	8ccc-	.
8B-	.	8f	.	8dd	.	16r	.
.	.	.	.	.	.	(16bb-	.
8B-	.	8f	.	8dd	.	8ccc)	.
8B-	.	8e-	.	8cc	.	16r	.
.	.	.	.	.	.	(16bb-	.
8B-	.	8d	.	8b-	.	8ddd)	.
8B-	.	8f	.	8a-	.	16r	.
.	.	.	.	.	.	(16bb-	.
=532	=532	=532	=532	=532	=532	=532	=532
8B-	.	8e-	.	8g	.	8eee-)	.
8BB-	.	8d	.	8f	.	16r	.
.	.	.	.	.	.	(16bb-	.
8BB-	.	8c	.	8e-	.	8fff)	.
8BB-	.	8B-	.	8d	.	16r	.
.	.	.	.	.	.	(16bb-	.
8BB-	.	8A-	.	8c	.	8ggg)	.
8BB-	.	8G	.	8B-	.	16r	.
.	.	.	.	.	.	16bb-	.
=533	=533	=533	=533	=533	=533	=533	=533
8BB-	f	8F	f	8A-	f	8aaa-	f
8BB-	.	8E-	.	8G	.	16r	.
.	.	.	.	.	.	16b-	.
8BB-	.	8D	.	8f	.	8aa-	.
8AA-	.	8C	.	8f	.	16r	.
.	.	.	.	.	.	16bb-	.
8GG	.	8B-	.	8e-	.	8ccc	.
8FF	.	8A-	.	8B-	.	16r	.
.	.	.	.	.	.	16ddd	.
=534	=534	=534	=534	=534	=534	=534	=534
*>B1	*>B1	*>B1	*>B1	*>B1	*>B1	*>B1	*>B1
4EE-	.	4E- 4G	.	4B-	.	4eee-	.
8E-	.	8e-	.	8G 8e-	.	8ee-	.
16r	.	16r	.	16r	.	16r	.
16BB	ff	16B	ff	16B	ff	16B	ff
8C	.	8c	.	8c	.	8c	.
16r	.	16r	.	16r	.	16r	.
16E-	.	16E-	.	16e-	.	16e-	.
=535:|!	=535:|!	=535:|!	=535:|!	=535:|!	=535:|!	=535:|!	=535:|!
*>B2	*>B2	*>B2	*>B2	*>B2	*>B2	*>B2	*>B2
8EE-	f	8G	f	4B-	f	4eee-	f
16r	.	16r	.	.	.	.	.
16GG	.	16G	.	.	.	.	.
8AA	.	8A	.	8e-	.	8ee-	.
16r	.	16r	.	16r	.	16r	.
16C	.	16c	.	16ee-	.	16eee-	.
4BB-	.	4B-	.	8dd	.	8ddd	.
.	.	.	.	16r	.	16r	.
.	.	.	.	16b	.	16bb	.
=536	=536	=536	=536	=536	=536	=536	=536
*>C	*>C	*>C	*>C	*>C	*>C	*>C	*>C
8.r	.	8.r	.	4cc	.	4ccc	.
16EE-	.	16E-	.	.	.	.	.
8FF	.	8F	.	8c	.	8cc	.
16r	.	16r	.	16r	.	16r	.
16AA-	.	16A-	.	16cc	.	16ccc	.
4GG	.	4G	.	8b-	.	8bb-	.
.	.	.	.	16r	.	16r	.
.	.	.	.	16g	.	16gg	.
=537	=537	=537	=537	=537	=537	=537	=537
8.r	.	8.r	.	4a-	.	4aa-	.
16CC	.	16C	.	.	.	.	.
8DD	.	8D	.	8A-	.	8a-	.
16r	.	16r	.	16r	.	16r	.
16GG	.	16F	.	16a-	.	16aa-	.
8EE-	.	8E-	.	8g	.	8gg	.
16r	.	16r	.	16r	.	16r	.
16E-	.	16G	.	16B- 16e-	.	16ee-	.
=538	=538	=538	=538	=538	=538	=538	=538
(2D	p	2.F	p	8f	p	(2ff	p
.	.	.	.	16r	.	.	.
.	.	.	.	16b-	.	.	.
.	.	.	.	8b-	.	.	.
.	.	.	.	16r	.	.	.
.	.	.	.	16b-	.	.	.
4C)	.	.	.	8a	.	4ee-)	.
.	.	.	.	16r	.	.	.
.	.	.	.	16a	.	.	.
=539	=539	=539	=539	=539	=539	=539	=539
4BB-	.	4F	.	8b-	.	4dd	.
.	.	.	.	16r	.	.	.
.	.	.	.	16B-	.	.	.
8.r	.	8.r	.	8B-	.	8.r	.
.	.	.	.	16r	.	.	.
16F	.	16d	.	16B-	.	16aa-	.
8E-	.	8e-	.	8B-	.	8gg	.
16r	.	16r	.	16r	.	16r	.
16C#	.	16g	.	16B-	.	16ee	.
=540	=540	=540	=540	=540	=540	=540	=540
(2D	.	(4f	.	8B-	.	(2ff	.
.	.	.	.	16r	.	.	.
.	.	.	.	16b-	.	.	.
.	.	2F)	.	8b-	.	.	.
.	.	.	.	16r	.	.	.
.	.	.	.	16b-	.	.	.
4C)	.	.	.	8b-	.	4ee-)	.
.	.	.	.	16r	.	.	.
.	.	.	.	16a-	.	.	.
=541	=541	=541	=541	=541	=541	=541	=541
4BB-	.	4F	.	8a-	.	4dd	.
.	.	.	.	16r	.	.	.
.	.	.	.	16a-	.	.	.
(4CC	.	8E-	.	8a-	.	8.r	.
.	.	16r	.	16r	.	.	.
.	.	16E-	.	16a-	.	16bb-	.
4DD)	.	8F	.	8a-	.	8aa-	.
.	.	16r	.	16r	.	16r	.
.	.	16B-	.	16a-	.	16ff#	.
=542	=542	=542	=542	=542	=542	=542	=542
[2.EE-	.	(2B-	.	8g	.	(2gg	.
.	.	.	.	16r	.	.	.
.	.	.	.	16d	.	.	.
.	.	.	.	8e-	.	.	.
.	.	.	.	16r	.	.	.
.	.	.	.	16g	.	.	.
.	.	4A-)	.	8b-	.	4ff)	.
.	.	.	.	16r	.	.	.
.	.	.	.	16dd	.	.	.
=543	=543	=543	=543	=543	=543	=543	=543
2.EE-_	.	8G	.	8ee-	.	4ee-	.
.	.	16r	.	16r	.	.	.
.	.	16D	.	16f	.	.	.
.	.	8E-	.	8g	.	8.r	.
.	.	16r	.	16r	.	.	.
.	.	16G	.	16b-	.	16bb-	.
.	.	8C	.	8e-	.	8aa-	.
.	.	16r	.	16r	.	16r	.
.	.	16D	.	16B-	.	16ff#	.
=544	=544	=544	=544	=544	=544	=544	=544
2.EE-_	.	8E-	.	(2B-	.	(2gg	.
.	.	16r	.	.	.	.	.
.	.	16D	.	.	.	.	.
.	.	8E-	.	.	.	.	.
.	.	16r	.	.	.	.	.
.	.	16G	.	.	.	.	.
.	.	8B-	.	4A-)	.	4ff)	.
.	.	16r	.	.	.	.	.
.	.	16d	.	.	.	.	.
=545	=545	=545	=545	=545	=545	=545	=545
2.EE-_	.	8e-	.	8G	.	(2ee-	.
.	.	16r	.	16r	.	.	.
.	.	16D	.	16f	.	.	.
.	.	8E-	.	8g	.	.	.
.	.	16r	.	16r	.	.	.
.	.	16F	.	16b-	.	.	.
.	.	8F	.	8a-	.	4dd-)	.
.	.	16r	.	16r	.	.	.
.	.	16G	.	16b-	.	.	.
=546	=546	=546	=546	=546	=546	=546	=546
2.EE-_	.	8A-	.	8cc	.	(2cc	.
.	.	16r	.	16r	.	.	.
.	.	16C	.	16e-	.	.	.
.	.	8C	.	8e-	.	.	.
.	.	16r	.	16r	.	.	.
.	.	16C	.	16e-	.	.	.
.	.	8D	p	8f	p	4cc-)	p
.	.	16r	.	16r	.	.	.
.	.	16F	.	16d	.	.	.
=547	=547	=547	=547	=547	=547	=547	=547
2.EE-_	.	8G	.	8e-	.	(2b-	.
.	.	16r	.	16r	.	.	.
.	.	16F	.	16d	.	.	.
.	.	8G	.	8e-	.	.	.
.	.	16r	.	16r	.	.	.
.	.	16e-	.	16g	.	.	.
.	.	8d	.	8a-	.	4cc-)	.
.	.	16r	.	16r	.	.	.
.	.	16d	.	16a-	.	.	.
=548	=548	=548	=548	=548	=548	=548	=548
2.EE-_	.	8e-	pp	8g	pp	(2b-	pp
.	.	16r	.	16r	.	.	.
.	.	16f	.	16d	.	.	.
.	.	8g	.	8e-	.	.	.
.	.	16r	.	16r	.	.	.
.	.	16e-	.	16g	.	.	.
.	.	8d	.	8a-	.	4c-	.
.	.	16r	.	16r	.	.	.
.	.	16d	.	16a-	.	.	.
=549	=549	=549	=549	=549	=549	=549	=549
2.EE-_	.	8e-	.	8g	.	2B-	.
.	.	16r	.	16r	.	.	.
.	.	16F	.	16d	.	.	.
.	.	8G	.	8e-	.	.	.
.	.	16r	.	16r	.	.	.
.	.	16E-	.	16G	.	.	.
.	.	8D	.	8A-	.	4c-)	.
.	.	16r	.	16r	.	.	.
.	.	16D	.	16A-	.	.	.
=550	=550	=550	=550	=550	=550	=550	=550
4EE-]	.	4E-	.	4G	.	4B-	.
8.r	.	8.r	.	8.r	.	8.r	.
16e-	pp	16e-	pp	16g	pp	16b-	pp
8d#	.	8f	.	8f	.	8b-	.
16r	.	16r	.	16r	.	16r	.
16B-	.	16f	.	16a-	.	16b-	.
=551	=551	=551	=551	=551	=551	=551	=551
4e-	.	4e-	.	4g	.	4b-	.
4e-	.	4e-	.	4g	.	4b-	.
4r	.	4r	.	4r	.	4r	.
=552	=552	=552	=552	=552	=552	=552	=552
4r	.	4r	.	4r	.	2.r	.
8.r	.	8.r	.	8.r	.	.	.
16e-	.	16g	.	16b-	.	.	.
8d	.	8f	.	8b-	.	.	.
16r	.	16r	.	16r	.	.	.
16B-	.	16f	.	16a- 16b-	.	.	.
=553	=553	=553	=553	=553	=553	=553	=553
4e-	.	4g	.	4g 4b-	.	2.r	.
4e-	.	4g	.	4b-	.	.	.
4r	.	4r	.	4r	.	.	.
=554	=554	=554	=554	=554	=554	=554	=554
4r	.	4r	.	4r	.	2.r	.
4e-	.	4g	.	4b-	.	.	.
4r	.	4r	.	4r	.	.	.
=555	=555	=555	=555	=555	=555	=555	=555
4r	.	4r	.	4r	.	2.r	.
4e-	.	4g-	.	4b-	.	.	.
4r	.	4r	.	4r	.	.	.
=556	=556	=556	=556	=556	=556	=556	=556
4r	.	4r	.	4r	.	2.r	.
4e-	.	4g-	.	4b-	.	.	.
4r	.	4r	.	4r	.	.	.
=557	=557	=557	=557	=557	=557	=557	=557
*MM280	*MM280	*MM280	*MM280	*MM280	*MM280	*MM280	*MM280
4r	.	4r	.	4r	.	2.r	.
4e-	.	4g-	.	4b-	.	.	.
4e-	.	4g-	.	4b-	.	.	.
=558	=558	=558	=558	=558	=558	=558	=558
4e-	.	4g-	.	4b-	.	2.r	.
4e-	.	4g-	.	4b-	.	.	.
4e-	.	4g-	.	4b-	.	.	.
=559	=559	=559	=559	=559	=559	=559	=559
4e-	.	4g-	.	4b-	.	2.r	.
4e-	.	4g-	.	4b-	.	.	.
4e-	.	4g-	.	4b-	.	.	.
=560	=560	=560	=560	=560	=560	=560	=560
4e-	.	4g-	.	4b-	.	4r	.
4e-	.	4g-	.	4b-	.	4bb-	.
4e-	.	4g-	.	4b-	.	4bb-	.
=561!|:	=561!|:	=561!|:	=561!|:	=561!|:	=561!|:	=561!|:	=561!|:
*>D	*>D	*>D	*>D	*>D	*>D	*>D	*>D
*k[b-e-a-d-g-c-]	*k[b-e-a-d-g-c-]	*k[b-e-a-d-g-c-]	*k[b-e-a-d-g-c-]	*k[b-e-a-d-g-c-]	*k[b-e-a-d-g-c-]	*k[b-e-a-d-g-c-]	*k[b-e-a-d-g-c-]
4e-	f	4g-	f	4e- 4b-	f	4bb-	f
4EE-	pp	4g-	pp	4e- 4b-	pp	4d	pp
4EE-	.	4g-	.	4e- 4b-	.	4e-	.
=562	=562	=562	=562	=562	=562	=562	=562
4EE-	.	4g-	.	4e- 4b-	.	4g-	.
4r	.	4g-	.	4e- 4b-	.	4b-	.
4r	.	4g-	.	4e- 4b-	.	4ee-	.
=563	=563	=563	=563	=563	=563	=563	=563
4r	.	4g-	.	4e- 4b-	.	4gg-	.
4e-	.	4g-	.	4e- 4b-	.	4ee-	.
4e-	.	4g-	.	4e- 4b-	.	4ff	.
=564	=564	=564	=564	=564	=564	=564	=564
4e-	.	4g-	.	4e- 4b-	.	4gg-	.
4r	.	4g-	.	4e- 4b-	.	4ff	.
4r	.	4g-	.	4e- 4b-	.	4ee-	.
=565	=565	=565	=565	=565	=565	=565	=565
4r	.	4a-	.	4f 4b-	.	4dd	.
4B-	.	4a-	.	4f 4b-	.	4ff	.
4B-	.	4a-	.	4f 4b-	.	4aa-	.
=566	=566	=566	=566	=566	=566	=566	=566
4B-	.	4a-	.	4f 4b-	.	4ccc-	.
4r	.	4a-	.	4f 4b-	.	4bb-	.
4r	.	4a-	.	4f 4b-	.	4aa-	.
=567	=567	=567	=567	=567	=567	=567	=567
4r	.	4a-	.	4f 4b-	.	4gg-	.
4BB-	.	4a-	.	4f 4b-	.	4aa-	.
4BB-	.	4a-	.	4f 4b-	.	4ff	.
=568	=568	=568	=568	=568	=568	=568	=568
4BB-	.	4a-	.	4f 4b-	.	4ee-	.
4r	.	4a-	.	4f 4b-	.	4ff	.
4r	.	4a-	.	4f 4b-	.	4dd	.
=569	=569	=569	=569	=569	=569	=569	=569
4r	.	4g-	.	4e- 4b-	.	4ee-	.
4EE-	.	4g-	.	4e- 4b-	.	4dd	.
4EE-	.	4g-	.	4e- 4b-	.	4ee-	.
=570	=570	=570	=570	=570	=570	=570	=570
4EE-	.	4g-	.	4e- 4b-	.	4gg-	.
4r	.	4g-	.	4e- 4b-	.	4bb-	.
4r	.	4g-	.	4e- 4b-	.	4eee-	.
=571	=571	=571	=571	=571	=571	=571	=571
4r	.	4g-	.	4e- 4b-	.	4ggg-	.
4e-	.	4g-	.	4e- 4b-	.	4eee-	.
4e-	.	4g-	.	4e- 4b-	.	4fff	.
=572	=572	=572	=572	=572	=572	=572	=572
4e-	.	4g-	.	4e- 4b-	.	4ggg-	.
4r	.	4g-	.	4e- 4b-	.	4eee-	.
4r	.	4g-	.	4e- 4b-	.	4ddd-	.
=573	=573	=573	=573	=573	=573	=573	=573
4r	.	4e-	.	4g-	.	4ccc	.
4A-	.	4g-	.	4a-	.	4ddd-	.
4A-	.	4g-	.	4a-	.	4eee-	.
=574	=574	=574	=574	=574	=574	=574	=574
4A-	.	4e-	.	4g-	.	4aa-	.
4r	.	4g-	.	4a-	.	4bb-	.
4r	.	4g-	.	4a-	.	4ccc	.
=575	=575	=575	=575	=575	=575	=575	=575
4r	.	4f	.	4a-	.	4ddd-	.
4AA-	.	4f	.	4a-	.	4ccc	.
4AA-	.	4f	.	4a-	.	4ddd-	.
=576	=576	=576	=576	=576	=576	=576	=576
4AA-	.	4f	.	4a-	.	4fff	.
4r	.	4f	.	4a-	.	4eee-	.
4r	.	4f	.	4a-	.	4ddd-	.
=577	=577	=577	=577	=577	=577	=577	=577
4r	.	4g-	.	4a-	.	4ccc	.
4A-	.	4g-	.	4a-	.	4ddd-	.
4A-	.	4g-	.	4a-	.	4eee-	.
=578	=578	=578	=578	=578	=578	=578	=578
4A-	.	4g-	.	4a-	.	4aa-	.
4r	.	4g-	.	4a-	.	4bb-	.
4r	.	4g-	.	4a-	.	4ccc	.
=579	=579	=579	=579	=579	=579	=579	=579
4r	.	4f	f	4a-	f	4ddd-	f
4D-	f	4f	.	4a-	.	4eee-	.
4D-	.	4f	.	4a-	.	4fff	.
=580	=580	=580	=580	=580	=580	=580	=580
*>D1	*>D1	*>D1	*>D1	*>D1	*>D1	*>D1	*>D1
4d-	p	4f	p	4a-	p	4ddd-	p
4e-	.	4e-	.	4g-	.	4bb-	.
4e-	.	4g-	.	4e- 4b-	.	4bb-	.
=581:|!	=581:|!	=581:|!	=581:|!	=581:|!	=581:|!	=581:|!	=581:|!
*>D2	*>D2	*>D2	*>D2	*>D2	*>D2	*>D2	*>D2
4D-	f	4f	f	4a-	f	4ddd-	f
(4FF	.	(4F	.	(4f	.	(4f	.
4GG-	.	4G-	.	4g-	.	4g-	.
=582	=582	=582	=582	=582	=582	=582	=582
*>E	*>E	*>E	*>E	*>E	*>E	*>E	*>E
4AA-)	ff	4A-)	ff	4a-)	ff	4a-)	ff
(4BB-	.	(4B-	.	(4B-	.	(4b-	.
4C)	.	4c)	.	4c	.	4cc)	.
=583	=583	=583	=583	=583	=583	=583	=583
4D-	.	4d-	.	4d-)	.	4dd-	.
(4FF	.	(4F	.	(4f	.	(4f	.
4GG-	.	4G-	.	4g-	.	4g-	.
=584	=584	=584	=584	=584	=584	=584	=584
4AA-)	.	4A-)	.	4a-)	.	4a-)	.
(4BB-	.	(4B-	.	(4B-	.	(4b-	.
4C	.	4c	.	4c	.	4cc	.
=585	=585	=585	=585	=585	=585	=585	=585
4D-)	.	4d-)	.	4d-)	.	4dd-)	.
(4FF	.	(4F	.	(4f	.	(4f	.
4GG-	.	4G-	.	4g-	.	4g-	.
=586	=586	=586	=586	=586	=586	=586	=586
4AA-)	.	4A-)	.	4a-)	.	4a-)	.
(4BB-	.	(4B-	.	(4B-	.	(4b-	.
4C	.	4c	.	4c	.	4cc	.
=587	=587	=587	=587	=587	=587	=587	=587
4D-)	.	4d-)	.	4d-)	.	4dd-)	.
4r	.	4r	.	4r	.	4r	.
4E-	.	4E-	.	4e-	.	4ee-	.
=588	=588	=588	=588	=588	=588	=588	=588
2.DD-	f	2.D-	f	2.d- 2.f	f	[2.ff	f
=589	=589	=589	=589	=589	=589	=589	=589
2.DD-	.	2.F	.	2.d- 2.f	.	4ff]	.
.	.	.	.	.	.	(4ee-	.
.	.	.	.	.	.	4dd-	.
=590	=590	=590	=590	=590	=590	=590	=590
2.DD-	.	2.E	.	2.e	.	4cc)	.
.	.	.	.	.	.	(4dd-	.
.	.	.	.	.	.	4b-	.
=591	=591	=591	=591	=591	=591	=591	=591
2.DD-	.	2.E	.	2.e	.	4a-)	.
.	.	.	.	.	.	(4b-	.
.	.	.	.	.	.	4g)	.
=592	=592	=592	=592	=592	=592	=592	=592
2.DD-	.	2.F	.	2.d- 2.f	.	[2.a-	.
=593	=593	=593	=593	=593	=593	=593	=593
2.DD-	.	2.F	.	2.d- 2.f	.	4a-]	.
.	.	.	.	.	.	(4g-	.
.	.	.	.	.	.	4f	.
=594	=594	=594	=594	=594	=594	=594	=594
2.DD-	.	2.G-	.	2.B--	.	4e-)	.
.	.	.	.	.	.	(4f	.
.	.	.	.	.	.	4d	.
=595	=595	=595	=595	=595	=595	=595	=595
2.DD-	.	2.G-	.	2.B--	.	4e-)	.
.	.	.	.	.	.	(4e-	.
.	.	.	.	.	.	4f	.
=596	=596	=596	=596	=596	=596	=596	=596
2.DD-	.	2.F	.	2.A-	.	2d-)	.
.	.	.	.	.	.	&([4ff&)	.
=597	=597	=597	=597	=597	=597	=597	=597
2.DD-	.	2.F	.	2.f	.	4ff]	.
.	.	.	.	.	.	(4ee-	.
.	.	.	.	.	.	4dd-	.
=598	=598	=598	=598	=598	=598	=598	=598
2.DD-	.	2.F	.	2.f	.	4cc)	.
.	.	.	.	.	.	(4ee-	.
.	.	.	.	.	.	4dd-	.
=599	=599	=599	=599	=599	=599	=599	=599
2.DD-	.	2.F	.	2.f	.	4cc)	.
.	.	.	.	.	.	(4dd-	.
.	.	.	.	.	.	4b-	.
=600	=600	=600	=600	=600	=600	=600	=600
2.CC	.	2.E-	.	2.e-	.	4a)	.
.	.	.	.	.	.	(4cc	.
.	.	.	.	.	.	4ee-)	.
=601	=601	=601	=601	=601	=601	=601	=601
2.CC	.	2.E-	.	2.e-	.	4gg-	.
.	.	.	.	.	.	(4ff	.
.	.	.	.	.	.	4ee-	.
=602	=602	=602	=602	=602	=602	=602	=602
2.FF	.	2.E-	.	2.e-	.	4dd-)	.
.	.	.	.	.	.	(4ee-	.
.	.	.	.	.	.	4cc	.
=603	=603	=603	=603	=603	=603	=603	=603
2.FF	.	2.f	.	2.e-	.	4b-)	.
.	.	.	.	.	.	(4cc	.
.	.	.	.	.	.	4a	.
=604	=604	=604	=604	=604	=604	=604	=604
4BB-	pp	4f	pp	4d-	pp	4b-)	pp
4B-	.	4d-	.	4f	.	4a	.
4B-	.	4d-	.	4f	.	4b-	.
=605	=605	=605	=605	=605	=605	=605	=605
4B-	.	4d-	.	4f	.	4dd-	.
4r	.	4d-	.	4f	.	4ff	.
4r	.	4d-	.	4f	.	4bb-	.
=606	=606	=606	=606	=606	=606	=606	=606
4r	.	4d-	.	4f	.	4ddd-	.
4e	.	4d-	.	4f	.	4bb-	.
4e	.	4d-	.	4f	.	4ccc	.
=607	=607	=607	=607	=607	=607	=607	=607
4f	.	4d-	.	4f	.	4ddd-	.
4r	.	4d-	.	4f	.	4ccc	.
4r	.	4d-	.	4f	.	4bb-	.
=608	=608	=608	=608	=608	=608	=608	=608
4r	.	4e-	.	4f	.	4aa	.
4F	.	4e-	.	4f	.	4ccc	.
4F	.	4e-	.	4f	.	4eee-	.
=609	=609	=609	=609	=609	=609	=609	=609
4F	.	4e-	.	4f	.	4ggg-	.
4r	.	4e-	.	4f	.	4fff	.
4r	.	4e-	.	4f	.	4eee-	.
=610	=610	=610	=610	=610	=610	=610	=610
4r	.	4e-	.	4f	.	4ddd-	.
4FF	.	4e-	.	4f	.	4eee-	.
4FF	.	4e-	.	4f	.	4ccc	.
=611	=611	=611	=611	=611	=611	=611	=611
4FF	.	4e-	.	4f	.	4bb-	.
4r	.	4e-	.	4f	.	4ccc	.
4r	.	4e-	.	4f	.	4aa	.
=612	=612	=612	=612	=612	=612	=612	=612
4r	.	4d-	.	4f	.	4bb-	.
4BB-	.	4d-	.	4f	.	4aa	.
4BB-	.	4d-	.	4f	.	4bb-	.
=613	=613	=613	=613	=613	=613	=613	=613
4BB-	.	4d-	.	4f	.	4ddd-	.
4r	.	4d-	.	4f	.	4fff	.
4r	.	4d-	.	4f	.	4bb-	.
=614	=614	=614	=614	=614	=614	=614	=614
4r	.	4d-	.	4f	.	4ddd-	.
4B-	.	4d-	.	4f	.	4bb-	.
4B-	.	4d-	.	4f	.	4ccc	.
=615	=615	=615	=615	=615	=615	=615	=615
4B-	.	4d-	.	4f	.	4ddd-	.
(4G-	.	(4G-	.	(4g-	.	(4B-	.
4F	.	4A-	.	4a-)	.	4c-)	.
=616	=616	=616	=616	=616	=616	=616	=616
4E-)	ff	4B-)	ff	4b-	ff	4d-	ff
(4D-	.	(4c-	.	(4cc-	.	(4e-	.
4C-	.	4d-	.	4dd-	.	4f	.
=617	=617	=617	=617	=617	=617	=617	=617
4BB-)	.	4d-)	.	4dd-)	.	4g-)	.
4G-	.	(4g-	.	4b-	.	(4B-	.
4F	.	4f)	.	4cc-	.	4c-)	.
=618	=618	=618	=618	=618	=618	=618	=618
4E-	.	4e-	.	4dd-	.	4d-	.
4D-	.	(4d-	.	4ee-	.	(4e-	.
4C-	.	4c-	.	4ff	.	4f)	.
=619	=619	=619	=619	=619	=619	=619	=619
4BB-	.	4B-)	.	4gg-	.	4g-	.
4G-	.	(4g-	.	4b-	.	(4B-	.
4F	.	4f)	.	4cc-	.	4c-)	.
=620	=620	=620	=620	=620	=620	=620	=620
4E-	.	4e-	.	4dd-	.	4d-	.
4D-	.	(4d-	.	4ee-	.	(4e-	.
4C-	.	4c-	.	4ff	.	4f	.
=621	=621	=621	=621	=621	=621	=621	=621
4BB-	.	4B-)	.	4gg-	.	4g-)	.
4BB-	.	(4B-	.	4gg-	.	(4g-	.
4AA-	.	4A-)	.	4aa-	.	4a-	.
=622	=622	=622	=622	=622	=622	=622	=622
2.GG-	f	2.G-	f	2.bb-	f	[2.b-)	f
=623	=623	=623	=623	=623	=623	=623	=623
2.GG-	.	2.B-	.	2.d-	.	4b-]	.
.	.	.	.	.	.	(4a-	.
.	.	.	.	.	.	4g-)	.
=624	=624	=624	=624	=624	=624	=624	=624
2.GG-	.	2.A	.	2.e-	.	4f	.
.	.	.	.	.	.	(4g-	.
.	.	.	.	.	.	4e-)	.
=625	=625	=625	=625	=625	=625	=625	=625
2.GG-	.	2.A	.	2.e- 2.ee-	.	4d-	.
.	.	.	.	.	.	(4e-	.
.	.	.	.	.	.	4c	.
=626	=626	=626	=626	=626	=626	=626	=626
2.GG-	.	2.B-	.	2.dd-	.	2d-)	.
.	.	.	.	.	.	[4dd-	.
=627	=627	=627	=627	=627	=627	=627	=627
2.GG-	.	2.B-	.	2.dd-	.	4dd-]	.
.	.	.	.	.	.	(4cc-	.
.	.	.	.	.	.	4b-	.
=628	=628	=628	=628	=628	=628	=628	=628
2.GG-	.	2.c-	.	2.ff	.	4a-)	.
.	.	.	.	.	.	(4b-	.
.	.	.	.	.	.	4g	.
=629	=629	=629	=629	=629	=629	=629	=629
2.GG-	.	2.c-	.	2.ff	.	4a-)	.
.	.	.	.	.	.	(4a-	.
.	.	.	.	.	.	4b-	.
=630	=630	=630	=630	=630	=630	=630	=630
2.GG-	.	2.B-	.	2.gg-	.	2g-)	.
.	.	.	.	.	.	&([4bb-&)	.
=631	=631	=631	=631	=631	=631	=631	=631
2.G-	.	2.B-	.	2.gg-	.	4bb-]	.
.	.	.	.	.	.	(4aa-	.
.	.	.	.	.	.	4gg-	.
=632	=632	=632	=632	=632	=632	=632	=632
2.E-	.	2.b-	.	2.gg-	.	4ff)	.
.	.	.	.	.	.	(4aa-	.
.	.	.	.	.	.	4gg-	.
=633	=633	=633	=633	=633	=633	=633	=633
2.E-	.	2.b-	.	2.gg-	.	4ff)	.
.	.	.	.	.	.	(4gg-	.
.	.	.	.	.	.	4ee-	.
=634	=634	=634	=634	=634	=634	=634	=634
2.BB-	.	2.d 2.b-	.	2.aa-	.	4dd)	.
.	.	.	.	.	.	(4ee-	.
.	.	.	.	.	.	4cc-	.
=635	=635	=635	=635	=635	=635	=635	=635
2.BB-	.	2.d 2.b-	.	2.aa-	.	4b-)	.
.	.	.	.	.	.	(4cc-	.
.	.	.	.	.	.	4a-	.
=636	=636	=636	=636	=636	=636	=636	=636
2.BB-	.	2.d 2.b-	.	2.aa-	.	4g-)	.
.	.	.	.	.	.	(4a-	.
.	.	.	.	.	.	4f	.
=637	=637	=637	=637	=637	=637	=637	=637
2.BB-	.	2.d 2.b-	.	2.aa-	.	4e-)	.
.	.	.	.	.	.	(4f	.
.	.	.	.	.	.	4d	.
=638	=638	=638	=638	=638	=638	=638	=638
4E-	pp	4e- 4b-	pp	4b- 4gg-	pp	4e-)	pp
4e-	.	4g-	.	4b-	.	4d	.
4e-	.	4g-	.	4b-	.	4e-	.
=639	=639	=639	=639	=639	=639	=639	=639
4e-	.	4g-	.	4b-	.	4g-	.
4r	.	4g-	.	4b-	.	4b-	.
4r	.	4g-	.	4b-	.	4ee-	.
=640	=640	=640	=640	=640	=640	=640	=640
4r	.	4g-	.	4b-	.	4gg-	.
4E-	.	4g-	.	4b-	.	4ee-	.
4E-	.	4g-	.	4b-	.	4ff	.
=641	=641	=641	=641	=641	=641	=641	=641
4E-	.	4g-	.	4b-	.	4gg-	.
4r	.	4g-	.	4b-	.	4ff	.
4r	.	4g-	.	4b-	.	4ee-	.
=642	=642	=642	=642	=642	=642	=642	=642
4r	.	4f	.	4a- 4b-	.	4dd	.
4BB-	.	4f	.	4a- 4b-	.	4ff	.
4BB-	.	4f	.	4a- 4b-	.	4aa-	.
=643	=643	=643	=643	=643	=643	=643	=643
4BB-	.	4f	.	4a- 4b-	.	4ccc-	.
4r	.	4f	.	4a- 4b-	.	4bb-	.
4r	.	4f	.	4a- 4b-	.	4aa-	.
=644	=644	=644	=644	=644	=644	=644	=644
4r	.	4f	.	4a- 4b-	.	4gg-	.
4B-	.	4f	.	4a- 4b-	.	4aa-	.
4B-	.	4f	.	4a- 4b-	.	4ff	.
=645	=645	=645	=645	=645	=645	=645	=645
4B-	.	4f	.	4a- 4b-	.	4ee-	.
4r	.	4f	.	4a- 4b-	.	4ff	.
4r	.	4f	.	4a- 4b-	.	4dd	.
=646	=646	=646	=646	=646	=646	=646	=646
4r	.	4e-	.	4g- 4b-	.	4ee-	.
4e-	.	4e-	.	4g- 4b-	.	4dd	.
4e-	.	4e-	.	4g- 4b-	.	4ee-	.
=647	=647	=647	=647	=647	=647	=647	=647
4e-	.	4e-	.	4g- 4b-	.	4gg-	.
4r	.	4e-	.	4g- 4b-	.	4bb-	.
4r	.	4e-	.	4g- 4b-	.	4eee-	.
=648	=648	=648	=648	=648	=648	=648	=648
4r	.	4e-	.	4g- 4b-	.	4ggg-	.
4E-	.	4e-	.	4g- 4b-	.	4eee-	.
4E-	.	4e-	.	4g- 4b-	.	4fff	.
=649	=649	=649	=649	=649	=649	=649	=649
4E-	.	4e-	.	4g- 4b-	.	4ggg-	.
(4F	.	4F	.	(4B-	.	(4d	.
4E-)	.	4F	.	4c)	.	4e-)	.
=650	=650	=650	=650	=650	=650	=650	=650
4D	ff	4F	ff	4d	ff	4f	ff
(4D	.	(4F	.	(4e-	.	(4g-	.
4C	.	4E-	.	4f)	.	4a)	.
=651	=651	=651	=651	=651	=651	=651	=651
*k[b-e-]	*k[b-e-]	*k[b-e-]	*k[b-e-]	*k[b-e-]	*k[b-e-]	*k[b-e-]	*k[b-e-]
4BB-)	.	4D)	.	4f	.	4b-	.
4r	.	(4B-	.	(4B-	.	(4d	.
4r	.	4A)	.	4c	.	4e-	.
=652	=652	=652	=652	=652	=652	=652	=652
2.r	.	4G	.	4d)	.	4f)	.
.	.	(4F	.	(4e-	.	(4g	.
.	.	4E-	.	4f	.	4a	.
=653	=653	=653	=653	=653	=653	=653	=653
4r	.	4D)	.	4f)	.	4b-)	.
(4BB-	.	(4D	.	(4B-	.	(4d	.
4AA)	.	4E-	.	4c	.	4e-	.
=654	=654	=654	=654	=654	=654	=654	=654
4GG	.	4F)	.	4d)	.	4f)	.
(4FF	.	(4G	.	(4e-	.	(4g	.
4EE-)	.	4A	.	4f)	.	4a	.
=655	=655	=655	=655	=655	=655	=655	=655
4DD	.	4B-)	.	4f	.	4b-)	.
(4BB-	.	(4B-	.	(4b-	.	(4d	.
4AA)	.	4A	.	4a	.	4e-)	.
=656	=656	=656	=656	=656	=656	=656	=656
4GG	.	4G)	.	4g)	.	4f	.
(4FF	.	(4F	.	(4f	.	(4g	.
4EE-	.	4E-)	.	4e-)	.	4a	.
=657	=657	=657	=657	=657	=657	=657	=657
4DD)	.	4D	.	4d	.	4b-)	.
(4D	.	(4D	.	(4d	.	(4b-	.
4C	.	4C	.	4c)	.	4cc)	.
=658	=658	=658	=658	=658	=658	=658	=658
2.BB-)	f	2.B-)	f	2.B-	f	[2.dd	f
=659	=659	=659	=659	=659	=659	=659	=659
2.BB-	.	2.d	.	2.ff	.	4dd]	.
.	.	.	.	.	.	(4cc	.
.	.	.	.	.	.	4b-)	.
=660	=660	=660	=660	=660	=660	=660	=660
2.BB-	.	2.c# 2.e	.	2.gg	.	4a	.
.	.	.	.	.	.	(4b-	.
.	.	.	.	.	.	4g)	.
=661	=661	=661	=661	=661	=661	=661	=661
2.B-	.	2.c# 2.e	.	2.gg	.	4f	.
.	.	.	.	.	.	(4g	.
.	.	.	.	.	.	4e	.
=662	=662	=662	=662	=662	=662	=662	=662
2.B-	.	2.d	.	2.ff	.	2f)	.
.	.	.	.	.	.	&([4ff&)	.
=663	=663	=663	=663	=663	=663	=663	=663
2.B-	.	2.d	.	2.ff	.	4ff]	.
.	.	.	.	.	.	(4ee-	.
.	.	.	.	.	.	4dd	.
=664	=664	=664	=664	=664	=664	=664	=664
2.B-	.	2.e-	.	2.aa	.	4cc)	.
.	.	.	.	.	.	(4dd	.
.	.	.	.	.	.	4b	.
=665	=665	=665	=665	=665	=665	=665	=665
2.B-	.	2.e-	.	2.aa	.	4cc)	.
.	.	.	.	.	.	(4cc	.
.	.	.	.	.	.	4dd)	.
=666	=666	=666	=666	=666	=666	=666	=666
2.B-	.	2.d	.	2.bb-	.	(2b-	.
.	.	.	.	.	.	[4ddd)	.
=667	=667	=667	=667	=667	=667	=667	=667
2.B-	.	2.d	.	2.ff	.	4ddd]	.
.	.	.	.	.	.	(4ccc	.
.	.	.	.	.	.	4bb-	.
=668	=668	=668	=668	=668	=668	=668	=668
2.B-	.	2.c# 2.e	.	2.ee 2.gg	.	4aa)	.
.	.	.	.	.	.	(4bb-	.
.	.	.	.	.	.	4gg	.
=669	=669	=669	=669	=669	=669	=669	=669
2.B-	.	2.c# 2.e	.	2.ee 2.gg	.	4ff)	.
.	.	.	.	.	.	(4gg	.
.	.	.	.	.	.	4ee)	.
=670	=670	=670	=670	=670	=670	=670	=670
2.B-	.	2.d	.	2.ff	.	(2ff	.
.	.	.	.	.	.	[4fff)	.
=671	=671	=671	=671	=671	=671	=671	=671
2.B-	.	2.d	.	2.ff	.	4fff]	.
.	.	.	.	.	.	(4eee-	.
.	.	.	.	.	.	4ddd	.
=672	=672	=672	=672	=672	=672	=672	=672
2.B-	.	2.e-	.	2.cc 2.aa	.	4ccc)	.
.	.	.	.	.	.	(4ddd	.
.	.	.	.	.	.	4bb	.
=673	=673	=673	=673	=673	=673	=673	=673
2.B-	.	2.e-	.	2.cc 2.aa	.	4ccc)	.
.	.	.	.	.	.	(4ccc	.
.	.	.	.	.	.	4ddd	.
=674	=674	=674	=674	=674	=674	=674	=674
2.B-	.	2.d	.	2.ff	.	4bb-)	.
.	.	.	.	.	.	(4ccc	.
.	.	.	.	.	.	4aa	.
=675	=675	=675	=675	=675	=675	=675	=675
2.B-	.	2.d	.	2.ff	.	4bb-)	.
.	.	.	.	.	.	(4ccc	.
.	.	.	.	.	.	4ddd)	.
=676	=676	=676	=676	=676	=676	=676	=676
2.B-	.	2.e-	.	2.cc 2.aa	.	4ccc	.
.	.	.	.	.	.	(4ddd	.
.	.	.	.	.	.	4bb	.
=677	=677	=677	=677	=677	=677	=677	=677
2.B-	.	2.e-	.	2.cc 2.aa	.	4ccc)	.
.	.	.	.	.	.	(4ccc	.
.	.	.	.	.	.	4ddd	.
=678	=678	=678	=678	=678	=678	=678	=678
2.B-	.	2.d	.	2.ff	.	4bb-)	.
.	.	.	.	.	.	(4ccc	.
.	.	.	.	.	.	4aa	.
=679	=679	=679	=679	=679	=679	=679	=679
2.B-	.	2.d	.	2.ff	.	4bb-)	.
.	.	.	.	.	.	(4ccc	.
.	.	.	.	.	.	4ddd)	.
=680	=680	=680	=680	=680	=680	=680	=680
2.B-	p	2.e-	p	2.cc 2.aa	p	4ccc	p
.	.	.	.	.	.	(4ddd	.
.	.	.	.	.	.	4bb	.
=681	=681	=681	=681	=681	=681	=681	=681
2.B-	.	2.c 2.e-	.	2.cc 2.aa	.	4ccc)	.
.	.	.	.	.	.	(4ccc	.
.	.	.	.	.	.	4ddd	.
=682	=682	=682	=682	=682	=682	=682	=682
2.B-	.	2.c 2.e-	.	2.cc 2.aa	.	4ccc)	.
.	.	.	.	.	.	(4ddd	.
.	.	.	.	.	.	4eee-)	.
=683	=683	=683	=683	=683	=683	=683	=683
*k[b-e-a-]	*k[b-e-a-]	*k[b-e-a-]	*k[b-e-a-]	*k[b-e-a-]	*k[b-e-a-]	*k[b-e-a-]	*k[b-e-a-]
*MM154	*MM154	*MM154	*MM154	*MM154	*MM154	*MM154	*MM154
2.r	.	2.r	.	2.r	.	4r	.
.	.	.	.	.	.	8.r	.
.	.	.	.	.	.	16fff	pp
.	.	.	.	.	.	8eee-	.
.	.	.	.	.	.	16r	.
.	.	.	.	.	.	16ccc	.
=684	=684	=684	=684	=684	=684	=684	=684
2.r	.	[2.b-	pp	[2.dd [2.ff	pp	4ddd	.
.	.	.	.	.	.	8.r	.
.	.	.	.	.	.	16ddd	.
.	.	.	.	.	.	8ccc	.
.	.	.	.	.	.	16r	.
.	.	.	.	.	.	16aa	.
=685	=685	=685	=685	=685	=685	=685	=685
2.r	.	2.b-_	.	2.dd] 2.ff]	.	4bb-	.
.	.	.	.	.	.	8.r	.
.	.	.	.	.	.	16bb-	.
.	.	.	.	.	.	8aa-	.
.	.	.	.	.	.	16r	.
.	.	.	.	.	.	16ff	.
=686	=686	=686	=686	=686	=686	=686	=686
2.r	.	(4b-]	.	(2ff	.	(2aa-	.
.	.	2a)	.	.	.	.	.
.	.	.	.	4ee-)	.	4gg)	.
=687	=687	=687	=687	=687	=687	=687	=687
4r	.	8b-	.	[2.dd	.	[2.ff	.
.	.	16r	.	.	.	.	.
.	.	16B-	.	.	.	.	.
8.r	.	[2b-	.	.	.	.	.
16BB-	.	.	.	.	.	.	.
8C	.	.	.	.	.	.	.
16r	.	.	.	.	.	.	.
16E-	.	.	.	.	.	.	.
=688	=688	=688	=688	=688	=688	=688	=688
4D	.	2.b-_	.	2.dd_	.	2.ff_	.
8.r	.	.	.	.	.	.	.
16D	.	.	.	.	.	.	.
8E-	.	.	.	.	.	.	.
16r	.	.	.	.	.	.	.
16G	.	.	.	.	.	.	.
=689	=689	=689	=689	=689	=689	=689	=689
4F	.	2.b-]	.	2.dd]	.	2.ff_	.
8.r	.	.	.	.	.	.	.
16F	.	.	.	.	.	.	.
8G	.	.	.	.	.	.	.
16r	.	.	.	.	.	.	.
16B-	.	.	.	.	.	.	.
=690	=690	=690	=690	=690	=690	=690	=690
(2A	.	(2cc	.	[2.ee-	.	2.ff_	.
4B-)	.	4b-	.	.	.	.	.
=691	=691	=691	=691	=691	=691	=691	=691
4c	.	4a)	.	(4ee-]	.	4ff]	.
(4D	.	8.r	.	4a-)	.	4B- 4f	.
.	.	16cc	.	.	.	.	.
4E)	.	8b-	.	(4B-	.	4g	.
.	.	16r	.	.	.	.	.
.	.	16g	.	.	.	.	.
=692	=692	=692	=692	=692	=692	=692	=692
(2F	.	4a-	.	2A-)	.	4a-	.
.	.	8.r	.	.	.	4r	.
.	.	16a-	.	.	.	.	.
4G)	.	8g	.	&(4B-&)	.	4r	.
.	.	16r	.	.	.	.	.
.	.	16e	.	.	.	.	.
=693	=693	=693	=693	=693	=693	=693	=693
(2A-	.	4f	.	(2c	.	2.r	.
.	.	8.r	.	.	.	.	.
.	.	16f	.	.	.	.	.
4A)	.	8e-	.	4cc	.	.	.
.	.	16r	.	.	.	.	.
.	.	16c	.	.	.	.	.
=694	=694	=694	=694	=694	=694	=694	=694
(2B-	.	(2d	.	4f	.	2.r	.
.	.	.	.	4r	.	.	.
4e-)	.	4c)	.	4r	.	.	.
=695	=695	=695	=695	=695	=695	=695	=695
4d	.	4B-	.	(2b-	.	2.r	.
4r	.	4r	.	.	.	.	.
4r	.	4r	.	4a-)	.	.	.
*clefC4	*clefC4	*	*	*	*	*	*
=696	=696	=696	=696	=696	=696	=696	=696
(2g	.	(2E-	.	4g	.	2.r	.
.	.	.	.	4r	.	.	.
4f)	.	4D)	.	4r	.	.	.
=697	=697	=697	=697	=697	=697	=697	=697
4e-	.	4C	.	(2ee-	.	2.r	.
4r	.	4r	.	.	.	.	.
4r	.	4r	.	4a)	.	.	.
*clefF4	*clefF4	*	*	*	*	*	*
=698	=698	=698	=698	=698	=698	=698	=698
(2D	.	(2F	.	4b-	.	2.r	.
.	.	.	.	4r	.	.	.
4C)	.	4E-)	.	4r	.	.	.
=699	=699	=699	=699	=699	=699	=699	=699
4BB-	.	4D	.	(2dd	.	(2bb-	pp
4r	.	4r	.	.	.	.	.
4r	.	4r	.	4ff	.	4aa-)	.
=700	=700	=700	=700	=700	=700	=700	=700
(2EE-	.	(2G	.	(2g	.	4gg	.
.	.	.	.	.	.	4r	.
4DD)	.	4F)	.	4b-	.	4r	.
=701	=701	=701	=701	=701	=701	=701	=701
8CC	.	4E-	.	(4a	.	(2eee-	.
16r	.	.	.	.	.	.	.
16C	.	.	.	.	.	.	.
4C-	.	4.A-	.	8.a-)	.	.	.
.	.	.	.	16e-	.	.	.
4BB-	.	.	.	8f	.	4ddd)	.
.	.	8F	.	16r	.	.	.
.	.	.	.	16a-	.	.	.
=702	=702	=702	=702	=702	=702	=702	=702
8E-	.	4E-	.	4G 4g	.	4eee-	f
16r	.	.	.	.	.	.	.
16E-	.	.	.	.	.	.	.
4e-	.	(4e-	.	8.r	.	4r	.
.	.	.	.	16g	.	.	.
4r	.	4f)	.	8a-	.	4r	.
.	.	.	.	16r	.	.	.
.	.	.	.	16a-	.	.	.
=703	=703	=703	=703	=703	=703	=703	=703
8.r	.	(2g	.	4b-	.	2.r	.
16E-	.	.	.	.	.	.	.
4e-	.	.	.	8.r	.	.	.
.	.	.	.	16b-	.	.	.
4r	.	4a-)	.	8cc	.	.	.
.	.	.	.	16r	.	.	.
.	.	.	.	16ee-	.	.	.
=704	=704	=704	=704	=704	=704	=704	=704
8f	.	(2a-	.	(2dd	.	2.r	.
16r	.	.	.	.	.	.	.
16F	.	.	.	.	.	.	.
8f	.	.	.	.	.	.	.
8B-	.	.	.	.	.	.	.
8e-	.	4g)	.	4ee-)	.	.	.
16r	.	.	.	.	.	.	.
16B-	.	.	.	.	.	.	.
=705	=705	=705	=705	=705	=705	=705	=705
8d	.	4f	.	4ff	.	4r	.
16r	.	.	.	.	.	.	.
16BB-	.	.	.	.	.	.	.
4B-	.	(4d	.	(4f	.	8.r	.
.	.	.	.	.	.	16fff	.
4r	.	4e-)	.	4g)	.	8eee-	.
.	.	.	.	.	.	16r	.
.	.	.	.	.	.	16ccc	.
=706	=706	=706	=706	=706	=706	=706	=706
8B-	.	(2f	.	(2a-	.	4ddd	.
16r	.	.	.	.	.	.	.
16BB-	.	.	.	.	.	.	.
(4B-	.	.	.	.	.	8.r	.
.	.	.	.	.	.	16ddd	.
4c)	.	4e-)	.	4a)	.	8ccc	.
.	.	.	.	.	.	16r	.
.	.	.	.	.	.	16aa	.
=707	=707	=707	=707	=707	=707	=707	=707
(2d-	.	(4f	.	[2.b-	.	4bb-	.
.	.	4e	.	.	.	8.r	.
.	.	.	.	.	.	16bb-	.
4d)	.	8f	.	.	.	8aa-	.
.	.	8a-)	.	.	.	16r	.
.	.	.	.	.	.	16ff	.
=708	=708	=708	=708	=708	=708	=708	=708
4e-	.	(4g	.	2.b-_	.	(2gg	.
8E-	.	4e-	.	.	.	.	.
16r	.	.	.	.	.	.	.
16B-	.	.	.	.	.	.	.
8A-	.	4d)	.	.	.	4ff)	.
16r	.	.	.	.	.	.	.
16F	.	.	.	.	.	.	.
=709	=709	=709	=709	=709	=709	=709	=709
(2G	.	(4e-	.	4b-]	.	4ee-	.
.	.	[2B-)	.	(4b-	.	8.r	.
.	.	.	.	.	.	16bb-	.
4F)	.	.	.	4dd)	.	8aa-	.
.	.	.	.	.	.	16r	.
.	.	.	.	.	.	16ff	.
=710	=710	=710	=710	=710	=710	=710	=710
4E-	.	(4B-]	.	(4ee-	.	(2gg	.
8.r	.	4e-	.	[2b-)	.	.	.
16B-	.	.	.	.	.	.	.
8A-	.	4d)	.	.	.	4ff)	.
16r	.	.	.	.	.	.	.
16F	.	.	.	.	.	.	.
=711	=711	=711	=711	=711	=711	=711	=711
4G	.	(4e-	.	(2b-]	.	(2ee-	.
8.r	.	4g	.	.	.	.	.
16GG	.	.	.	.	.	.	.
8G	.	4f)	.	4b)	.	4dd)	.
16r	.	.	.	.	.	.	.
16G	.	.	.	.	.	.	.
=712	=712	=712	=712	=712	=712	=712	=712
4A-	f	4f	f	4c	f	4cc	f
4A-	.	4c	.	4cc	.	4ff	.
4G	.	4G 4d	.	4b	.	4gg	.
=713	=713	=713	=713	=713	=713	=713	=713
4r	.	4r	.	4r	.	4r	.
4c	p	4g	p	4cc	p	4ee-	p
4r	.	4r	.	4r	.	4r	.
=714	=714	=714	=714	=714	=714	=714	=714
4r	.	4r	.	4r	.	4r	.
4F	.	4a	.	4cc	.	4ff	.
4r	.	4r	.	4r	.	4r	.
=715	=715	=715	=715	=715	=715	=715	=715
8B-	f	8d	f	4f	f	4dd	f
8A-	.	8c	.	.	.	.	.
8G	.	8B	.	4dd	.	4ff	.
8B	.	8d	.	.	.	.	.
8A	.	8c	.	4dd	.	4gg	.
8G	.	8B	.	.	.	.	.
=716	=716	=716	=716	=716	=716	=716	=716
8c	p	8e-	p	8ee-	p	8.r	.
8e-	.	8cc	.	8g	.	.	.
.	.	.	.	.	.	(16ee-	p
8c	.	8ee-	.	8e-	.	4eee-)	.
8e-	.	8cc	.	8g	.	.	.
8d	.	8dd	.	8f	.	4r	.
8c	.	8ee-	.	8e-	.	.	.
=717	=717	=717	=717	=717	=717	=717	=717
*	*	*	*	*^	*	*	*
8A	.	8e-	.	8cc	8f	.	8.r	.
8c	.	8c	.	8ee-	8f	.	.	.
.	.	.	.	.	.	.	(16ff	.
8A	.	8e-	.	8cc	8f	.	4fff)	.
8c	.	8c	.	8ee-	8f	.	.	.
8B-	.	8d	.	8dd	8f	.	4r	.
8A	.	8e-	.	8cc	8f	.	.	.
*	*	*	*	*v	*v	*	*	*
=718	=718	=718	=718	=718	=718	=718	=718
8e-	.	8f	.	8cc	.	8gg-	.
8d	.	8f	.	8b-	.	16r	.
.	.	.	.	.	.	(16ff	.
8c	.	8e-	.	8a	.	8gg)	.
8B-	.	8d	.	8g	.	16r	.
.	.	.	.	.	.	(16ff	.
8A	.	8c	.	8f	.	8aa)	.
8G	.	8B-	.	8e-	.	16r	.
.	.	.	.	.	.	(16ff	.
=719	=719	=719	=719	=719	=719	=719	=719
8F	.	8A	.	8d	.	8bb-)	.
8E-	.	8G	.	8c	.	16r	.
.	.	.	.	.	.	(16ff	.
8D	.	8F	.	8B-	.	8ccc)	.
8C	.	8E-	.	8A	.	16r	.
.	.	.	.	.	.	(16ee-	.
8BB-	.	8D	.	8G	.	8ddd)	.
8AA	.	8C	.	8f	.	16r	.
.	.	.	.	.	.	(16ee-	.
=720	=720	=720	=720	=720	=720	=720	=720
8GG	.	8B-	f	8e-	.	8eee-)	f
8FF	.	8A	.	8e-	.	16r	.
.	.	.	.	.	.	(16ff	.
8f	.	8A	.	8e-	.	8eee-)	.
8F	.	8c	.	8e-	.	16r	.
.	.	.	.	.	.	16fff	.
8F	.	8c	.	8ee-	.	8ggg	.
8FF	.	8c	.	8ee-	.	16r	.
.	.	.	.	.	.	16aaa	.
=721	=721	=721	=721	=721	=721	=721	=721
4BB-	.	4B-	.	4dd	.	4bbb-	.
8B-	.	8b-	.	8B-	.	8B-	.
16r	.	16r	.	16r	.	16r	ff
16BB	ff	16B	ff	16B	.	16B	.
8C	.	8c	.	8c	.	8c	.
16r	.	16r	.	16r	.	16r	.
16E-	.	16e-	.	16e-	.	16e-	.
=722	=722	=722	=722	=722	=722	=722	=722
8CC	.	8C	.	8c	.	8c	.
16r	.	16r	.	16r	.	16r	.
16DD	.	16D	.	16d	.	16d	.
8FF	.	8F	.	8f	.	8f	.
16r	.	16r	.	16r	.	16r	.
16EE-	.	16E-	.	16e-	.	16e-	.
8FF	.	8F	.	8f	.	8f	.
16r	.	16r	.	16r	.	16r	.
16AA-	.	16A-	.	16a-	.	16a-	.
=723	=723	=723	=723	=723	=723	=723	=723
8GG	.	8G	.	8g	.	8g	.
16r	.	16r	.	16r	.	16r	.
16AA	.	16A	.	16a	.	16a	.
8C	.	8c	.	8cc	.	8cc	.
16r	.	16r	.	16r	.	16r	.
16BB	.	16B	.	16b	.	16b	.
8C	.	8c	.	8cc	.	8cc	.
16r	.	16r	.	16r	.	16r	.
16E-	.	16e-	.	16ee-	.	16ee-	.
=724	=724	=724	=724	=724	=724	=724	=724
8D	.	8d	.	8dd	.	8dd	.
16r	.	16r	.	16r	.	16r	.
16E-	.	16e-	.	16ee-	.	16ee-	.
8F	.	8f	.	8ff	.	8ff	.
16r	.	16r	.	16r	.	16r	.
16E	.	16e	.	16ee	.	16ee	.
8F	.	8f	.	8ff	.	8ff	.
16r	.	16r	.	16r	.	16r	.
16F#	.	16f#	.	16f#	.	16ff#	.
=725	=725	=725	=725	=725	=725	=725	=725
8GG	.	8G	.	8g	.	8gg	.
16r	.	16r	.	16r	.	16r	.
16GG	.	16G	.	16g	.	16gg	.
8G	.	8g	.	8gg	.	8ggg	.
8BB	p	8r	.	8r	.	16r	.
.	.	.	.	.	.	16gg	p
8D	.	4r	.	4r	.	8ff	.
8G	.	.	.	.	.	16r	.
.	.	.	.	.	.	16dd	.
=726	=726	=726	=726	=726	=726	=726	=726
(8C	.	2.r	.	8.r	.	4ee-	.
8G	.	.	.	.	.	.	.
.	.	.	.	16g	p	.	.
8c)	.	.	.	4ee-	.	8.r	.
8G	.	.	.	.	.	.	.
.	.	.	.	.	.	16ee-	.
8B	.	.	.	4r	.	8dd	.
8G	.	.	.	.	.	16r	.
.	.	.	.	.	.	16b	.
=727	=727	=727	=727	=727	=727	=727	=727
(8C	.	8.r	.	2.r	.	4cc	.
8G	.	.	.	.	.	.	.
.	.	16G	p	.	.	.	.
8e-)	.	4C	.	.	.	8.r	.
8G	.	.	.	.	.	.	.
.	.	.	.	.	.	16aa-	.
8C	.	4r	.	.	.	8gg	.
8G	.	.	.	.	.	16r	.
.	.	.	.	.	.	16ee-	.
=728	=728	=728	=728	=728	=728	=728	=728
(8BB	.	2.r	.	8.r	.	4ff	.
8G	.	.	.	.	.	.	.
.	.	.	.	16g	.	.	.
8d)	.	.	.	4ff	.	8.r	.
8G	.	.	.	.	.	.	.
.	.	.	.	.	.	16ff	.
8C	.	.	.	4r	.	8ee-	.
8G	.	.	.	.	.	16r	.
.	.	.	.	.	.	16cc	.
=729	=729	=729	=729	=729	=729	=729	=729
(8BB	.	8.r	.	2.r	.	4dd	.
8G	.	.	.	.	.	.	.
.	.	16d	.	.	.	.	.
8d)	.	4G	.	.	.	8.r	.
8G	.	.	.	.	.	.	.
.	.	.	.	.	.	16gg	.
8BB	.	4r	.	.	.	8ff	.
8G	.	.	.	.	.	16r	.
.	.	.	.	.	.	16dd	.
=730	=730	=730	=730	=730	=730	=730	=730
(8C	.	2.r	.	8.r	.	4ee-	.
8G	.	.	.	.	.	.	.
.	.	.	.	16g	.	.	.
8c)	.	.	.	4ee-	.	8.r	.
8G	.	.	.	.	.	.	.
.	.	.	.	.	.	16ee-	.
8F	.	.	.	4r	.	8dd	.
8G	.	.	.	.	.	16r	.
.	.	.	.	.	.	16b	.
=731	=731	=731	=731	=731	=731	=731	=731
8E-	.	8.r	.	4r	.	4cc	.
8G	.	.	.	.	.	.	.
.	.	16c	.	.	.	.	.
8E	.	8g	.	8.r	.	4r	.
8G	.	16r	.	.	.	.	.
.	.	16C	.	16g	.	.	.
8C	.	8G	.	8b-	.	4r	.
8E	.	8G	.	16r	.	.	.
.	.	.	.	16cc	.	.	.
=732	=732	=732	=732	=732	=732	=732	=732
4FF	p	(8F	p	4a-	p	8.r	.
.	.	8c	.	.	.	.	.
.	.	.	.	.	.	16cc	p
4r	.	8a-)	.	8.r	.	4ccc	.
.	.	8c	.	.	.	.	.
.	.	.	.	16a-	.	.	.
4r	.	8F	.	8b-	.	4r	.
.	.	8c	.	16r	.	.	.
.	.	.	.	16dd-	.	.	.
=733	=733	=733	=733	=733	=733	=733	=733
8.r	.	(8F	.	4cc	.	2.r	.
.	.	8c	.	.	.	.	.
16F	.	.	.	.	.	.	.
4c	.	8a-)	.	8.r	.	.	.
.	.	8c	.	.	.	.	.
.	.	.	.	16e	.	.	.
4r	.	8F	.	8f	.	.	.
.	.	8c	.	16r	.	.	.
.	.	.	.	16a-	.	.	.
=734	=734	=734	=734	=734	=734	=734	=734
2.r	.	(8E	.	4g	.	8.r	.
.	.	8c	.	.	.	.	.
.	.	.	.	.	.	16cc	.
.	.	8g)	.	8.r	.	4ccc	.
.	.	8c	.	.	.	.	.
.	.	.	.	16g	.	.	.
.	.	8F	.	8a-	.	4r	.
.	.	8c	.	16r	.	.	.
.	.	.	.	16cc	.	.	.
=735	=735	=735	=735	=735	=735	=735	=735
8.r	.	8E	.	8b-	.	8.r	.
.	.	8c	.	16r	.	.	.
16C	.	.	.	16cc	.	16cc	.
8F	.	8F	.	8a-	.	8aa-	.
16r	.	16r	.	16r	.	8a-	.
16A-	.	16f	.	16a-	.	.	.
8G-	.	8e-	.	8b-	.	8c	.
16r	.	16r	.	16r	.	8a-	.
16E-	.	16c	.	16cc	.	.	.
=736	=736	=736	=736	=736	=736	=736	=736
4F	p	4A-	p	4dd-	p	(8d-	p
.	.	.	.	.	.	8a-	.
8.r	.	8.r	.	8.r	.	8ff)	.
.	.	.	.	.	.	8a-	.
16F	.	16A-	.	16dd-	.	.	.
8E-	.	8G-	.	8ee-	.	8c	.
16r	.	16r	.	16r	.	8a-	.
16C	.	16E-	.	16gg-	.	.	.
=737	=737	=737	=737	=737	=737	=737	=737
4D-	.	4F	.	4ff	.	(8d-	.
.	.	.	.	.	.	8a-	.
8.r	.	8.r	.	8.r	.	8ff)	.
.	.	.	.	.	.	8a-	.
16B-	.	16g-	.	16cc	.	.	.
8A-	.	8f	.	8dd-	.	8d-	.
16r	.	16r	.	16r	.	8a-	.
16F	.	16d-	.	16ff	.	.	.
=738	=738	=738	=738	=738	=738	=738	=738
4G-	.	4A- 4a-	.	4ee-	.	(8c	.
.	.	.	.	.	.	8a-	.
8.r	.	8.r	.	8.r	.	8ee-)	.
.	.	.	.	.	.	8a-	.
16G-	.	16c	.	16ee-	.	.	.
8F	.	8d-	.	8ff	.	8d-	.
16r	.	16r	.	16r	.	8a-	.
16D-	.	16A-	.	16aa-	.	.	.
=739	=739	=739	=739	=739	=739	=739	=739
4E-	.	4A-	.	4gg-	.	(8c	.
.	.	.	.	.	.	8a-	.
8.r	.	8.r	.	4r	.	8gg-)	.
.	.	.	.	.	.	16r	.
16AA-	.	16C	.	.	.	16aa-	.
8BB-	.	8D-	.	4r	.	8gg-	.
16r	.	16r	.	.	.	16r	.
16C	.	16A-	.	.	.	16ee-	.
=740	=740	=740	=740	=740	=740	=740	=740
4D-	.	4A-	.	8.r	.	4ff	.
.	.	.	.	16A-	.	.	.
8.r	.	8.r	.	4a-	.	8.r	.
16D-	.	16F	.	.	.	16ff	.
8E-	.	8G-	.	4r	.	8ee-	.
16r	.	16r	.	.	.	16r	.
16G-	.	16A-	.	.	.	16cc	.
=741	=741	=741	=741	=741	=741	=741	=741
4F	.	4A-	.	8.r	.	4dd	.
.	.	.	.	16B-	.	.	.
8.r	.	8.r	.	4b-	.	8.r	.
16C	.	16E-	.	.	.	16bb-	.
8D	.	8F	.	4r	.	8aa-	.
16r	.	16r	.	.	.	16r	.
16F	.	16A-	.	.	.	16ff	.
=742	=742	=742	=742	=742	=742	=742	=742
4E-	.	4G-	.	8.r	.	4gg-	.
.	.	.	.	16B-	.	.	.
8.r	.	8.r	.	4b-	.	8.r	.
16E-	.	16G-	.	.	.	16gg-	.
8F	.	8A-	.	4r	.	8ff	.
16r	.	16r	.	.	.	16r	.
16A-	.	16B-	.	.	.	16dd	.
=743	=743	=743	=743	=743	=743	=743	=743
8G-	f	8B-	f	4r	.	8ee-	f
16r	.	16r	.	.	.	16r	.
16D	.	16F	.	.	.	16ccc-	.
8E-	.	8G-	.	8.r	.	8bb-	.
16r	.	16r	.	.	.	16r	.
16G-	.	16B-	.	16b-	f	16gg-	.
8F	.	8A-	.	8cc-	.	8aa-	.
16r	.	16r	.	16r	.	16r	.
16F	.	16A-	.	16cc-	.	16aa-	.
=744	=744	=744	=744	=744	=744	=744	=744
8G-	.	8B-	.	8b-	.	8gg-	.
16r	.	16r	.	16r	.	16r	.
16B-	.	16d-	.	16g-	.	16ee-	.
8A-	.	8c-	.	8a-	.	8ff	.
16r	.	16r	.	16r	.	16r	.
16E-	.	16G-	.	16dd-	.	16ddd-	.
8F	.	8A-	.	8dd-	.	8ccc-	.
16r	.	16r	.	16r	.	16r	.
16F	.	16d-	.	16cc-	.	16aa-	.
=745	=745	=745	=745	=745	=745	=745	=745
8G-	ff	8d-	ff	8b-	ff	8bb-	ff
16r	.	16r	.	16r	.	16r	.
16B-	.	16g-	.	16dd-	.	16gg-	.
8G-	.	8d-	.	8b-	.	8bb-	.
16r	.	16r	.	16r	.	16r	.
16B-	.	16g-	.	16dd-	.	16gg-	.
8G-	.	8d-	.	8b-	.	8bb-	.
16r	.	16r	.	16r	.	16r	.
16B-	.	16g-	.	16dd-	.	16gg-	.
=746	=746	=746	=746	=746	=746	=746	=746
8E-	.	8c-	.	8g-	.	8ccc-	.
16r	.	16r	.	16r	.	16r	.
16G-	.	16e-	.	16cc-	.	16gg-	.
8E-	.	8c-	.	8g-	.	8ccc-	.
16r	.	16r	.	16r	.	16r	.
16G-	.	16e-	.	16cc-	.	16gg-	.
8E-	.	8c-	.	8g-	.	8ccc-	.
16r	.	16r	.	16r	.	16r	.
16G-	.	16e-	.	16cc-	.	16gg-	.
=747	=747	=747	=747	=747	=747	=747	=747
8D-	.	8B-	.	8g-	.	8bb-	.
16r	.	16r	.	16r	.	16r	.
16G-	.	16d-	.	16b-	.	16gg-	.
8D-	.	8B-	.	8g-	.	8bb-	.
16r	.	16r	.	16r	.	16r	.
16G-	.	16d-	.	16b-	.	16gg-	.
8D-	.	8B-	.	8g-	.	8bb-	.
16r	.	16r	.	16r	.	16r	.
16G-	.	16d-	.	16b-	.	16gg-	.
=748	=748	=748	=748	=748	=748	=748	=748
8D-	.	8A-	.	8f	.	8aa-	.
16r	.	16r	.	16r	.	16r	.
16A-	.	16f	.	16dd-	.	16ff	.
8D-	.	8A-	.	8f	.	8aa-	.
16r	.	16r	.	16r	.	16r	.
16A-	.	16f	.	16dd-	.	16ff	.
8D-	.	8A-	.	8f	.	8aa-	.
16r	.	16r	.	16r	.	16r	.
16A-	.	16f	.	16dd-	.	16ff	.
=749	=749	=749	=749	=749	=749	=749	=749
8F#	pp	8A	.	8a	pp	8aa	pp
16r	.	16r	.	16r	.	16r	.
16A	.	16f#	.	16cc#	.	16ff#	.
8F#	.	8A	.	8a	.	8aa	.
16r	.	16r	.	16r	.	16r	.
16A	.	16f#	.	16cc#	.	16ff#	.
8F#	.	8A	.	8a	.	8aa	.
16r	.	16r	.	16r	.	16r	.
16A	.	16f#	.	16cc#	.	16ff#	.
=750	=750	=750	=750	=750	=750	=750	=750
8F#	.	8A	.	8a	.	8aa	.
16r	.	16r	.	16r	.	16r	.
16A	.	16f#	.	16dd	.	16ff#	.
8F#	.	8A	.	8a	.	8aa	.
16r	.	16r	.	16r	.	16r	.
16A	.	16f#	.	16dd	.	16ff#	.
8F#	.	8A	.	8a	.	8aa	.
16r	.	16r	.	16r	.	16r	.
16A	.	16f#	.	16dd	.	16ff#	.
=751	=751	=751	=751	=751	=751	=751	=751
8D	f	8D 8d	f	8d 8dd	f	8ddd	f
16r	.	16r	.	16r	.	16r	.
16DD	.	16D	.	16d	.	16d	.
8EE	.	8E	.	8e	.	8e	.
16r	.	16r	.	16r	.	16r	.
16GG	.	16G	.	16g	.	16g	.
8FF#	.	8F#	.	8f#	.	8f#	.
16r	.	16r	.	16r	.	16r	.
16GG	.	16G	.	16g	.	16g	.
=752	=752	=752	=752	=752	=752	=752	=752
8BB-	.	8B-	.	8b-	.	8b-	.
16r	.	16r	.	16r	.	16r	.
16AA	.	16A	.	16a	.	16a	.
8BB-	.	8B-	.	8b-	.	8b-	.
16r	.	16r	.	16r	.	16r	.
16D	.	16d	.	16dd	.	16dd	.
8C	.	8c	.	8cc	.	8cc	.
16r	.	16r	.	16r	.	16r	.
16D	.	16d	.	16dd	.	16dd	.
=753	=753	=753	=753	=753	=753	=753	=753
8E-	.	8e-	.	8ee-	.	8ee-	.
16r	.	16r	.	16r	.	16r	.
16D	.	16d	.	16dd	.	16dd	.
8E	.	8e	.	8ee	.	8ee	.
16r	.	16r	.	16r	.	16r	.
16G	.	16g	.	16gg	.	16gg	.
8F#	.	8f#	.	8ff#	.	8ff#	.
16r	.	16r	.	16r	.	16r	.
16G	.	16g	.	16gg	.	16gg	.
=754	=754	=754	=754	=754	=754	=754	=754
8B-	.	8b-	.	8b-	.	8bb-	.
16r	.	16r	.	16r	.	16r	.
16A	.	16a	.	16a	.	16aa	.
8c	.	8cc	.	8cc	.	8ccc	.
16r	.	16r	.	16r	.	16r	.
16d	.	16dd	.	16dd	.	16ddd	.
4e-	.	4ee-	.	4ee-	.	4eee-	.
=755	=755	=755	=755	=755	=755	=755	=755
*M2/4	*M2/4	*M2/4	*M2/4	*M2/4	*M2/4	*M2/4	*M2/4
4r	.	4r	.	2r	.	2r	.
(4CC	p	(4C	p	.	.	.	.
=756	=756	=756	=756	=756	=756	=756	=756
4DD	.	4D	.	2r	.	2r	.
4FF#)	.	4F#)	.	.	.	.	.
=757	=757	=757	=757	=757	=757	=757	=757
4GG	.	(4G	.	2r	.	2r	.
4BB-	.	4B-)	.	.	.	.	.
=758	=758	=758	=758	=758	=758	=758	=758
(8AA	.	(8A	.	2r	.	2r	.
16BB-	.	16B-	.	.	.	.	.
16AA)	.	16A)	.	.	.	.	.
8GG	.	8G	.	.	.	.	.
8BB-	.	8B-	.	.	.	.	.
=759	=759	=759	=759	=759	=759	=759	=759
8E-	.	8e-	.	2r	.	2r	.
8D	.	8d	.	.	.	.	.
8F#	.	8f#	.	.	.	.	.
8G	.	8g	.	.	.	.	.
=760	=760	=760	=760	=760	=760	=760	=760
*M3/4	*M3/4	*M3/4	*M3/4	*M3/4	*M3/4	*M3/4	*M3/4
*MM154	*MM154	*MM154	*MM154	*MM154	*MM154	*MM154	*MM154
[2.c	pp	[2.e-	pp	[2.f# [2.a	pp	4r	.
.	.	.	.	.	.	8.r	.
.	.	.	.	.	.	16eee-	pp
.	.	.	.	.	.	8ddd	.
.	.	.	.	.	.	16r	.
.	.	.	.	.	.	16bb	.
=761	=761	=761	=761	=761	=761	=761	=761
4c]	.	4e-]	.	4f#] 4a]	.	4ccc	.
4r	.	4r	.	8.r	.	4r	.
.	.	.	.	16B	.	.	.
4r	.	4r	.	8d	.	4r	.
.	.	.	.	16r	.	.	.
.	.	.	.	16e-	.	.	.
=762	=762	=762	=762	=762	=762	=762	=762
4r	.	4r	.	4f	.	2.r	.
(4GG	.	(4G	.	4r	.	.	.
4BB)	.	4B)	.	4r	.	.	.
=763	=763	=763	=763	=763	=763	=763	=763
*M2/4	*M2/4	*M2/4	*M2/4	*M2/4	*M2/4	*M2/4	*M2/4
(4CC	p	(4C	p	2r	.	2r	.
4EE-)	.	4E-)	.	.	.	.	.
=764	=764	=764	=764	=764	=764	=764	=764
(8DD	.	(8D	.	2r	.	2r	.
16EE-	.	16E-	.	.	.	.	.
16DD)	.	16D)	.	.	.	.	.
8CC	.	8C	.	.	.	.	.
8EE-	.	8E-	.	.	.	.	.
=765	=765	=765	=765	=765	=765	=765	=765
8AA-	.	8A-	.	2r	.	2r	.
8GG	.	8G	.	.	.	.	.
8G	.	8B	.	.	.	.	.
8F	.	8c	.	.	.	.	.
=766	=766	=766	=766	=766	=766	=766	=766
*M3/4	*M3/4	*M3/4	*M3/4	*M3/4	*M3/4	*M3/4	*M3/4
*MM154	*MM154	*MM154	*MM154	*MM154	*MM154	*MM154	*MM154
[2.E	pp	[2.c [2.g	pp	2.r	.	4r	.
.	.	.	.	.	.	8.r	.
.	.	.	.	.	.	16ddd-	pp
.	.	.	.	.	.	8ccc	.
.	.	.	.	.	.	16r	.
.	.	.	.	.	.	16gg	.
=767	=767	=767	=767	=767	=767	=767	=767
2.E]	.	2.c_ 2.g_	.	4r	.	4bb-	.
.	.	.	.	8.r	.	4r	.
.	.	.	.	16c	pp	.	.
.	.	.	.	8g	.	4r	.
.	.	.	.	16r	.	.	.
.	.	.	.	16a-	.	.	.
=768	=768	=768	=768	=768	=768	=768	=768
(2EE	.	4.c] 4.g]	.	4b-	.	2.r	.
.	.	.	.	4r	.	.	.
.	.	16r	.	.	.	.	.
.	.	16E	.	.	.	.	.
4DD-)	.	8G	.	4r	.	.	.
.	.	16r	.	.	.	.	.
.	.	16A-	.	.	.	.	.
=769	=769	=769	=769	=769	=769	=769	=769
4CC	p	4B-	.	4r	.	4r	.
4r	.	8.r	.	8.r	.	8.r	.
.	.	16e	.	16g	.	16ccc	.
(4GG	.	8g	.	8cc	.	8bb-	.
.	.	16r	.	16r	.	16r	.
.	.	16cc	.	16ee	.	16gg	.
=770	=770	=770	=770	=770	=770	=770	=770
2FF	.	4cc	.	4ff	.	4aa-	.
.	.	8.r	.	4r	.	4r	.
.	.	16C	.	.	.	.	.
4DD-)	.	8F	.	4r	.	4r	.
.	.	16r	.	.	.	.	.
.	.	16G	.	.	.	.	.
=771	=771	=771	=771	=771	=771	=771	=771
2CC	p	4A-	.	4r	.	4r	.
.	.	8.r	.	8.r	.	8.r	.
.	.	16C	.	16f	.	16aa-	.
(4BB-	.	8D-	.	8e	.	8gg	.
.	.	16r	.	16r	.	16r	.
.	.	16d-	.	16g	.	16ee	.
=772	=772	=772	=772	=772	=772	=772	=772
2AA-)	.	4c	.	4f	.	4ff	.
.	.	8.r	.	8.r	.	8.r	.
.	.	16F	.	16A-	.	16fff	.
(4GG	.	8G	.	8B-	.	8eee-	.
.	.	16r	.	16r	.	16r	.
.	.	16e-	.	16b-	.	16ccc	.
=773	=773	=773	=773	=773	=773	=773	=773
2FF)	.	4a-	.	4b-	.	4ddd	.
.	.	8.r	.	8.r	.	8.r	.
.	.	16a-	.	16b-	.	16ddd	.
(4EE-	.	8g	.	8b-	.	8eee-	.
.	.	16r	.	16r	.	16r	.
.	.	16g	.	16b-	.	16ddd	.
=774	=774	=774	=774	=774	=774	=774	=774
8DD)	f	8f	f	8b-	f	8fff	f
16r	.	16r	.	16r	.	16r	.
16DD	.	16b-	.	16aa-	.	16fff	.
8EE-	.	8b-	.	8gg	.	8eee-	.
16r	.	8B-	.	8g	.	16r	.
16E-	.	.	.	.	.	16bb-	.
8F	.	8D	.	8a-	.	8aa-	.
16r	.	8B-	.	8d	.	16r	.
16A-	.	.	.	.	.	16ff	.
=775	=775	=775	=775	=775	=775	=775	=775
4G	.	8E-	.	4e-	.	8ee-	.
.	.	8B-	.	.	.	16r	.
.	.	.	.	.	.	16ee-	.
8.r	.	8E- 8G	.	8.r	.	4eee-	.
.	.	8E-	.	.	.	.	.
16G	.	.	.	16e-	.	.	.
8A-	.	8F	.	4ee-	.	4r	.
16r	.	8A-	.	.	.	.	.
16c	.	.	.	.	.	.	.
=776	=776	=776	=776	=776	=776	=776	=776
4B-	.	8G	.	4r	.	8.r	.
.	.	8g 8b-	.	.	.	.	.
.	.	.	.	.	.	16ee-	.
8.r	.	8G	.	8.r	.	4eee-	.
.	.	8G	.	.	.	.	.
16B-	.	.	.	16e-	.	.	.
8c	.	8A-	.	4ee-	.	4r	.
16r	.	8A	.	.	.	.	.
16e-	.	.	.	.	.	.	.
=777	=777	=777	=777	=777	=777	=777	=777
(2d	.	8B-	.	4r	.	8.r	.
.	.	8f	.	.	.	.	.
.	.	.	.	.	.	16b-	.
.	.	8F	.	8.r	.	4bb-	.
.	.	8B-	.	.	.	.	.
.	.	.	.	16B-	.	.	.
4e-)	.	8G	.	4b-	.	4r	.
.	.	8B-	.	.	.	.	.
=778	=778	=778	=778	=778	=778	=778	=778
4f	.	8A-	.	4r	.	8.r	.
.	.	8F	.	.	.	.	.
.	.	.	.	.	.	16b-	.
8r	.	8D	.	8.r	.	4bb-	.
8D	.	16r	.	.	.	.	.
.	.	16B-	.	16ff	.	.	.
8G	.	4b-	.	8ee-	.	4r	.
8E-	.	.	.	16r	.	.	.
.	.	.	.	16cc	.	.	.
=779	=779	=779	=779	=779	=779	=779	=779
8BB-	.	8.r	.	4dd	.	8.r	.
8B-	.	.	.	.	.	.	.
.	.	16F	.	.	.	16A	.
8F	.	8d	.	8.r	.	8B-	.
8B-	.	16r	.	.	.	16r	.
.	.	16d	.	16dd	.	16f	.
8E-	.	4e-	.	8cc	.	4g-	.
8B-	.	.	.	16r	.	.	.
.	.	.	.	16a	.	.	.
=780	=780	=780	=780	=780	=780	=780	=780
8D-	.	8.r	.	4b-	.	2.r	.
8B-	.	.	.	.	.	.	.
.	.	16E	.	.	.	.	.
8D	.	8F	.	8.r	.	.	.
8B-	.	16r	.	.	.	.	.
.	.	16G	.	16b-	.	.	.
8F	.	4A-	.	8a-	.	.	.
8B-	.	.	.	16r	.	.	.
.	.	.	.	16f	.	.	.
=781	=781	=781	=781	=781	=781	=781	=781
8E-	.	2.r	.	(2g	.	8.r	.
8B-	.	.	.	.	.	.	.
.	.	.	.	.	.	16a	.
8G	.	.	.	.	.	8b-	.
8B-	.	.	.	.	.	16r	.
.	.	.	.	.	.	16ee-	.
8A-	.	.	.	4f)	.	4dd	.
8B-	.	.	.	.	.	.	.
=782	=782	=782	=782	=782	=782	=782	=782
8G	.	8.r	.	4e-	.	4r	.
8B-	.	.	.	.	.	.	.
.	.	16d	.	.	.	.	.
8E-	.	8e-	.	8r	.	8.r	.
8B-	.	16r	.	8e-	.	.	.
.	.	16g	.	.	.	16ee-	.
8BB-	.	8f	.	8d	.	8ff	.
8B-	.	16r	.	8dd	.	16r	.
.	.	16f	.	.	.	16aa-	.
=783	=783	=783	=783	=783	=783	=783	=783
8E-	.	4G 4g	.	8e-	.	4gg	.
16r	.	.	.	8ee-	.	.	.
16EE-	.	.	.	.	.	.	.
4E-	.	8.r	.	8e-	.	8.r	.
.	.	.	.	8ee-	.	.	.
.	.	16E-	.	.	.	16gg	.
4r	.	4e-	.	8f	.	8aa-	.
.	.	.	.	8ee-	.	16r	.
.	.	.	.	.	.	16ccc	.
=784	=784	=784	=784	=784	=784	=784	=784
8.r	.	4r	.	8g	.	4bb-	.
.	.	.	.	8ee-	.	.	.
16EE-	.	.	.	.	.	.	.
4E-	.	8.r	.	8g	.	8.r	.
.	.	.	.	8ee-	.	.	.
.	.	16E-	.	.	.	16bb-	.
4r	.	4e-	.	8a-	.	8ccc	.
.	.	.	.	8g	.	16r	.
.	.	.	.	.	.	16eee-	.
=785	=785	=785	=785	=785	=785	=785	=785
8.r	.	4r	.	8f	.	(2ddd	.
.	.	.	.	8b-	.	.	.
16BB-	.	.	.	.	.	.	.
4B-	.	8.r	.	8f	.	.	.
.	.	.	.	8b-	.	.	.
.	.	16B-	.	.	.	.	.
4r	.	4b-	.	8g	.	4eee-)	.
.	.	.	.	8b-	.	.	.
=786	=786	=786	=786	=786	=786	=786	=786
8.r	.	4r	.	4a-	.	4fff	.
16BB-	.	.	.	.	.	.	.
8B-	.	8.r	.	8.r	.	4r	.
16r	.	.	.	.	.	.	.
16F	.	16B-	.	16a-	.	.	.
8E-	.	4b-	.	8g	.	4r	.
16r	.	.	.	16r	.	.	.
16C	.	.	.	16e-	.	.	.
=787	=787	=787	=787	=787	=787	=787	=787
4D	.	8.r	.	4f	.	8.r	.
.	.	16F	.	.	.	16ccc	.
8.r	.	4f	.	8.r	.	8ddd	.
.	.	.	.	.	.	16r	.
16D	.	.	.	16b-	.	16fff	.
8C	.	4r	.	8cc	.	4eee-	.
16r	.	.	.	16r	.	.	.
16AA	.	.	.	16ee-	.	.	.
=788	=788	=788	=788	=788	=788	=788	=788
4BB-	.	4r	.	8dd	.	8.r	.
.	.	.	.	16r	.	.	.
.	.	.	.	16d	.	16aa	.
8.r	.	8.r	.	4dd	.	8bb-	.
.	.	.	.	.	.	16r	.
16BB-	.	16G	.	.	.	16ddd	.
8AA-	.	8A-	.	4r	.	4ccc	.
16r	.	16r	.	.	.	.	.
16FF	.	16c	.	.	.	.	.
=789	=789	=789	=789	=789	=789	=789	=789
(2GG	.	(4B-	.	8.r	.	8.r	.
.	.	.	.	16B-	.	16dd	.
.	.	4E-	.	8b-	.	8ee-	.
.	.	.	.	16r	.	16r	.
.	.	.	.	16B-	.	16ee-	.
4FF)	.	4D)	.	8b-	.	8ff	.
.	.	.	.	16r	.	16r	.
.	.	.	.	16B-	.	16aa-	.
=790	=790	=790	=790	=790	=790	=790	=790
4EE-	.	(2E-	.	8b-	.	(2gg	.
.	.	.	.	16r	.	.	.
.	.	.	.	16B-	.	.	.
8.r	.	.	.	8b-	.	.	.
.	.	.	.	16r	.	.	.
16BB-	.	.	.	16B-	.	.	.
8AA-	.	4F)	.	8b-	.	4aa-)	.
16r	.	.	.	16r	.	.	.
16FF	.	.	.	16B-	.	.	.
=791	=791	=791	=791	=791	=791	=791	=791
(2GG	.	(2E-	.	8b-	.	4bb-	.
.	.	.	.	16r	.	.	.
.	.	.	.	16B-	.	.	.
.	.	.	.	8b-	.	8.r	.
.	.	.	.	16r	p	.	.
.	.	.	.	16B-	.	16ee-	p
4FF)	p	4D)	p	8b-	.	8ff	.
.	.	.	.	16r	.	16r	.
.	.	.	.	16B-	.	16aa-	.
=792	=792	=792	=792	=792	=792	=792	=792
4EE-	.	(2E-	.	8b-	.	(2gg	.
.	.	.	.	16r	.	.	.
.	.	.	.	16B-	.	.	.
8.r	.	.	.	8b-	.	.	.
.	.	.	.	16r	.	.	.
16BB-	.	.	.	16B-	.	.	.
8AA-	.	4F)	.	8b-	.	4aa-)	.
16r	.	.	.	16r	.	.	.
16FF	.	.	.	16B-	.	.	.
=793	=793	=793	=793	=793	=793	=793	=793
4GG	.	(4E-	.	8b-	.	(2bb-	.
.	.	.	.	16r	.	.	.
.	.	.	.	16G	.	.	.
8.r	.	4G	.	8g	.	.	.
.	.	.	.	16r	.	.	.
16G	.	.	.	16G	.	.	.
8F	.	4d)	.	8g	.	4bb	.
16r	.	.	.	16r	.	.	.
16D	.	.	.	16G	.	.	.
=794	=794	=794	=794	=794	=794	=794	=794
8C	.	8e-	.	8g	.	4ccc	.
16r	.	16r	.	16r	.	.	.
16c	.	16e-	.	16ee-	.	.	.
8B-	.	8e-	.	8dd-	.	4ddd-	.
16r	.	16r	.	16r	.	.	.
16B-	.	16e-	.	16dd-	.	.	.
8A-	.	8e-	.	8cc	.	4eee-	.
16r	.	16r	.	16r	.	.	.
16A-	.	16c	.	16cc	.	.	.
=795	=795	=795	=795	=795	=795	=795	=795
4A-	f	4c	f	4cc	f	4fff	f
4A-	.	4c	.	4ccc	.	4fff#	.
4G	.	4d	.	4dd 4bb	.	4ggg	.
=796	=796	=796	=796	=796	=796	=796	=796
2.r	.	4r	.	4r	.	4r	.
.	.	4cc	p	4gg	p	4eee-	p
.	.	4r	.	4r	.	4r	.
=797	=797	=797	=797	=797	=797	=797	=797
4r	.	4r	.	4r	.	4r	.
4c	p	4e-	.	4a 4ff	.	4fff	.
4r	.	4r	.	4r	.	4r	.
=798	=798	=798	=798	=798	=798	=798	=798
4B-	f	4d	f	4b- 4ff	f	4ddd	f
4d	.	4f	.	4b-	.	4bb-	.
4e	.	4g	.	4b- 4gg	.	4ccc	.
=799	=799	=799	=799	=799	=799	=799	=799
4r	.	4r	.	4r	.	4r	.
4f	p	4f	p	4cc	p	4aa-	p
4r	.	4r	.	4r	.	4r	.
=800	=800	=800	=800	=800	=800	=800	=800
4r	.	4r	.	4r	.	4r	.
4B-	.	4B- 4d	.	4f 4dd	.	4bb-	.
4r	.	4r	.	4r	.	4r	.
=801	=801	=801	=801	=801	=801	=801	=801
8e-	f	2.r	.	8g	f	4gg	f
8d-	.	.	.	8f	.	.	.
8c	.	.	.	8e	.	4bb-	.
8e	.	.	.	8g	.	.	.
8d	.	.	.	8f	.	4ccc	.
8c	.	.	.	8e	.	.	.
=802	=802	=802	=802	=802	=802	=802	=802
2.r	.	8A-	p	8c	p	8.r	.
.	.	8G	.	8B-	.	.	.
.	.	.	.	.	.	(16a-	p
.	.	8F	.	8A-	.	4aa-)	.
.	.	8A-	.	8c	.	.	.
.	.	8G	.	8B-	.	4r	.
.	.	8F	.	8A-	.	.	.
=803	=803	=803	=803	=803	=803	=803	=803
8d	p	8b-	.	8ff	.	8.r	.
8c	.	8b-	.	8ee-	.	.	.
.	.	.	.	.	.	(16b-	.
8B-	.	8b-	.	8dd	.	4bb-)	.
8d	.	8b-	.	8ff	.	.	.
8c	.	8b-	.	8ee-	.	4r	.
8B-	.	8b-	.	8dd	.	.	.
=804	=804	=804	=804	=804	=804	=804	=804
8B-	.	8a-	.	8ff	.	8ccc-	.
8B-	.	8f	.	8dd	.	16r	.
.	.	.	.	.	.	(16bb-	.
8B-	.	8f	.	8dd	.	8ccc)	.
8B-	.	8e-	.	8cc	.	16r	.
.	.	.	.	.	.	(16bb-	.
8B-	.	8d	.	8b-	.	8ddd)	.
8B-	.	8f	.	8a-	.	16r	.
.	.	.	.	.	.	(16bb-	.
=805	=805	=805	=805	=805	=805	=805	=805
8B-	.	8e-	.	8g	.	8eee-)	.
8BB-	.	8d	.	8f	.	16r	.
.	.	.	.	.	.	(16bb-	.
8BB-	.	8c	.	8e-	.	8fff)	.
8BB-	.	8B-	.	8d	.	16r	.
.	.	.	.	.	.	(16bb-	.
8BB-	.	8A-	.	8c	.	8ggg)	.
8BB-	.	8G	.	8B-	.	16r	.
.	.	.	.	.	.	(16bb-	.
=806	=806	=806	=806	=806	=806	=806	=806
8BB-	f	8F	f	8A-	f	8aaa-)	f
8BB-	.	8E-	.	8G	.	16r	.
.	.	.	.	.	.	(16b-	.
8BB-	.	8D	.	8f	.	8aa-)	.
8AA-	.	8C	.	8f	.	16r	.
.	.	.	.	.	.	16bb-	.
8GG	.	8B-	.	8e-	.	8ccc	.
8FF	.	8A-	.	8B-	.	16r	.
.	.	.	.	.	.	16ddd	.
=807	=807	=807	=807	=807	=807	=807	=807
8EE-	.	8G	.	4B-	.	4eee-	.
16r	.	16r	.	.	.	.	.
16GG	.	16G	.	.	.	.	.
8AA	.	8A	.	8e-	.	8ee-	.
16r	.	16r	.	16r	.	16r	.
16C	.	16c	.	16ee-	.	16eee-	.
4BB-	.	4B-	.	8dd	.	8ddd	.
.	.	.	.	16r	.	16r	.
.	.	.	.	16b	.	16bb	.
=808	=808	=808	=808	=808	=808	=808	=808
8.r	.	8.r	.	4cc	.	4ccc	.
16EE-	.	16E-	.	.	.	.	.
8FF	.	8F	.	8c	.	8cc	.
16r	.	16r	.	16r	.	16r	.
16AA-	.	16A-	.	16cc	.	16ccc	.
4GG	.	4G	.	8b-	.	8bb-	.
.	.	.	.	16r	.	16r	.
.	.	.	.	16g	.	16gg	.
=809	=809	=809	=809	=809	=809	=809	=809
8.r	.	8.r	.	4a-	.	4aa-	.
16CC	.	16C	.	.	.	.	.
8DD	.	8D	.	8A-	.	8a-	.
16r	.	16r	.	16r	.	16r	.
16FF	.	16F	.	16a-	.	16aa-	.
8EE-	.	8E-	.	8g	.	8gg	.
16r	.	16r	.	16r	.	16r	.
16E-	.	16G	.	16B- 16e-	.	16ee-	.
=810	=810	=810	=810	=810	=810	=810	=810
(2D	p	2.F	p	8f	p	(2ff	p
.	.	.	.	16r	.	.	.
.	.	.	.	16b-	.	.	.
.	.	.	.	8b-	.	.	.
.	.	.	.	16r	.	.	.
.	.	.	.	16b-	.	.	.
4C)	.	.	.	8a	.	4ee-)	.
.	.	.	.	16r	.	.	.
.	.	.	.	16a	.	.	.
=811	=811	=811	=811	=811	=811	=811	=811
4BB-	.	4F	.	8b-	.	4dd	.
.	.	.	.	16r	.	.	.
.	.	.	.	16B-	.	.	.
8.r	.	8.r	.	8B-	.	8.r	.
.	.	.	.	16r	.	.	.
16F	.	16d	.	16B-	.	16aa-	.
8E-	.	8e-	.	8B-	.	8gg	.
16r	.	16r	.	16r	.	16r	.
16C#	.	16g	.	16B-	.	16ee	.
=812	=812	=812	=812	=812	=812	=812	=812
(2D	.	(4f	.	8B-	.	(2ff	.
.	.	.	.	16r	.	.	.
.	.	.	.	16b-	.	.	.
.	.	2F)	.	8b-	.	.	.
.	.	.	.	16r	.	.	.
.	.	.	.	16b-	.	.	.
4C)	.	.	.	8b-	.	4ee-)	.
.	.	.	.	16r	.	.	.
.	.	.	.	16a-	.	.	.
=813	=813	=813	=813	=813	=813	=813	=813
4BB-	.	4F	.	8a-	.	4dd	.
.	.	.	.	16r	.	.	.
.	.	.	.	16a-	.	.	.
(4CC	.	8E-	.	8a-	.	8.r	.
.	.	16r	.	16r	.	.	.
.	.	16E-	.	16a-	.	16bb-	.
4DD)	.	8F	.	8a-	.	8aa-	.
.	.	16r	.	16r	.	16r	.
.	.	16B-	.	16a-	.	16ff#	.
=814	=814	=814	=814	=814	=814	=814	=814
[2.EE-	.	(2B-	.	8g	.	(2gg	.
.	.	.	.	16r	.	.	.
.	.	.	.	16d	.	.	.
.	.	.	.	8e-	.	.	.
.	.	.	.	16r	.	.	.
.	.	.	.	16g	.	.	.
.	.	4A-)	.	8b-	.	4ff)	.
.	.	.	.	16r	.	.	.
.	.	.	.	16dd	.	.	.
=815	=815	=815	=815	=815	=815	=815	=815
2.EE-_	.	8G	.	8ee-	.	4ee-	.
.	.	16r	.	16r	.	.	.
.	.	16D	.	16f	.	.	.
.	.	8E-	.	8g	.	8.r	.
.	.	16r	.	16r	.	.	.
.	.	16G	.	16b-	.	16bb-	.
.	.	8C	.	8e-	.	8aa-	.
.	.	16r	.	16r	.	16r	.
.	.	16D	.	16B-	.	16ff#	.
=816	=816	=816	=816	=816	=816	=816	=816
2.EE-_	.	8E-	.	(2B-	.	(2gg	.
.	.	16r	.	.	.	.	.
.	.	16D	.	.	.	.	.
.	.	8E-	.	.	.	.	.
.	.	16r	.	.	.	.	.
.	.	16G	.	.	.	.	.
.	.	8B-	.	4A-)	.	4ff)	.
.	.	16r	.	.	.	.	.
.	.	16d	.	.	.	.	.
=817	=817	=817	=817	=817	=817	=817	=817
2.EE-_	.	8e-	.	8G	.	(2ee-	.
.	.	16r	.	16r	.	.	.
.	.	16D	.	16f	.	.	.
.	.	8E-	.	8g	.	.	.
.	.	16r	.	16r	.	.	.
.	.	16G	.	16b-	.	.	.
.	.	8F	.	8a-	.	4dd-)	.
.	.	16r	.	16r	.	.	.
.	.	16G	.	16b-	.	.	.
=818	=818	=818	=818	=818	=818	=818	=818
2.EE-_	.	8A-	.	8cc	.	(2cc	.
.	.	16r	.	16r	.	.	.
.	.	16C	.	16e-	.	.	.
.	.	8C	.	8e-	.	.	.
.	.	16r	.	16r	.	.	.
.	.	16C	.	16e-	.	.	.
.	.	8D	p	8f	p	4cc-)	p
.	.	16r	.	16r	.	.	.
.	.	16F	.	16d	.	.	.
=819	=819	=819	=819	=819	=819	=819	=819
2.EE-_	.	8G	.	8e-	.	(2b-	.
.	.	16r	.	16r	.	.	.
.	.	16F	.	16d	.	.	.
.	.	8G	.	8e-	.	.	.
.	.	16r	.	16r	.	.	.
.	.	16e-	.	16g	.	.	.
.	.	8d	.	8a-	.	4cc-)	.
.	.	16r	.	16r	.	.	.
.	.	16d	.	16a-	.	.	.
=820	=820	=820	=820	=820	=820	=820	=820
2.EE-_	.	8e-	pp	8g	pp	(2b-	pp
.	.	16r	.	16r	.	.	.
.	.	16f	.	16d	.	.	.
.	.	8g	.	8e-	.	.	.
.	.	16r	.	16r	.	.	.
.	.	16e-	.	16g	.	.	.
.	.	8d	.	8a-	.	4c-)	.
.	.	16r	.	16r	.	.	.
.	.	16d	.	16a-	.	.	.
=821	=821	=821	=821	=821	=821	=821	=821
2.EE-_	.	8e-	.	8g	.	(2B-	.
.	.	16r	.	16r	.	.	.
.	.	16F	.	16d	.	.	.
.	.	8G	.	8e-	.	.	.
.	.	16r	.	16r	.	.	.
.	.	16E-	.	16G	.	.	.
.	.	8D	.	8A-	.	4c-)	.
.	.	16r	.	16r	.	.	.
.	.	16D	.	16A-	.	.	.
=822	=822	=822	=822	=822	=822	=822	=822
4EE-]	.	4E-	.	4G	.	4B-	.
8.r	.	8.r	.	8.r	.	8.r	.
16e-	pp	16e-	pp	16g	pp	16b-	pp
8d	.	8f	.	8f	.	8b-	.
16r	.	16r	.	16r	.	16r	.
16B-	.	16f	.	16a-	.	16b-	.
=823	=823	=823	=823	=823	=823	=823	=823
4e-	.	4e-	.	4g	.	4b-	.
4e-	.	4e-	.	4g	.	4b-	.
4r	.	4r	.	4r	.	4r	.
=824	=824	=824	=824	=824	=824	=824	=824
4r	.	4r	.	4r	.	2.r	.
8.r	.	8.r	.	8.r	.	.	.
16e-	.	16g	.	16b-	.	.	.
8d	.	8f	.	8b-	.	.	.
16r	.	16r	.	16r	.	.	.
16B-	.	16f	.	16a- 16b-	.	.	.
=825	=825	=825	=825	=825	=825	=825	=825
4e-	.	4g	.	4g 4b-	.	2.r	.
4e-	.	4g	.	4b-	.	.	.
4r	.	4r	.	4r	.	.	.
=826	=826	=826	=826	=826	=826	=826	=826
4r	.	4r	.	4r	.	2.r	.
4e-	.	4g	.	4b-	.	.	.
4r	.	4r	.	4r	.	.	.
=827	=827	=827	=827	=827	=827	=827	=827
4r	.	4r	.	4r	.	2.r	.
4e-	.	4g-	.	4b-	.	.	.
4r	.	4r	.	4r	.	.	.
=828	=828	=828	=828	=828	=828	=828	=828
4r	.	4r	.	4r	.	2.r	.
4e-	.	4g-	.	4b-	.	.	.
4r	.	4r	.	4r	.	.	.
=829	=829	=829	=829	=829	=829	=829	=829
*MM280	*MM280	*MM280	*MM280	*MM280	*MM280	*MM280	*MM280
4r	.	4r	.	4r	.	2.r	.
4e-	.	4g-	.	4b-	.	.	.
4e-	.	4g-	.	4b-	.	.	.
=830	=830	=830	=830	=830	=830	=830	=830
4e-	.	4g-	.	4b-	.	2.r	.
4e-	.	4g-	.	4b-	.	.	.
4e-	.	4g-	.	4b-	.	.	.
=831	=831	=831	=831	=831	=831	=831	=831
4e-	.	4g-	.	4b-	.	2.r	.
4e-	.	4g-	.	4b-	.	.	.
4e-	.	4g-	.	4b-	.	.	.
=832	=832	=832	=832	=832	=832	=832	=832
4e-	.	4g-	.	4b-	.	4r	.
4e-	.	4g-	.	4b-	.	4bb-	.
4e-	.	4g-	.	4b-	.	4bb-	.
=833	=833	=833	=833	=833	=833	=833	=833
4e-	f	4g-	f	4e- 4b-	f	4bb-	f
4EE-	pp	4g-	pp	4e- 4b-	pp	(4d	pp
4EE-	.	4g-	.	4e- 4b-	.	4e-	.
=834	=834	=834	=834	=834	=834	=834	=834
4EE-	.	4g-	.	4e- 4b-	.	4g-	.
4r	.	4g-	.	4e- 4b-	.	4b-	.
4r	.	4g-	.	4e- 4b-	.	4ee-	.
=835	=835	=835	=835	=835	=835	=835	=835
4r	.	4g-	.	4e- 4b-	.	4gg-	.
4e-	.	4g-	.	4e- 4b-	.	4ee-	.
4e-	.	4g-	.	4e- 4b-	.	4ff	.
=836	=836	=836	=836	=836	=836	=836	=836
4e-	.	4g-	.	4e- 4b-	.	4gg-	.
4r	.	4g-	.	4e- 4b-	.	4ff	.
4r	.	4g-	.	4e- 4b-	.	4ee-	.
=837	=837	=837	=837	=837	=837	=837	=837
4r	.	4a-	.	4f 4b-	.	4dd	.
4B-	.	4a-	.	4f 4b-	.	4ff	.
4B-	.	4a-	.	4f 4b-	.	4aa-	.
=838	=838	=838	=838	=838	=838	=838	=838
4B-	.	4a-	.	4f 4b-	.	4ccc-	.
4r	.	4a-	.	4f 4b-	.	4bb-	.
4r	.	4a-	.	4f 4b-	.	4aa-	.
=839	=839	=839	=839	=839	=839	=839	=839
4r	.	4a-	.	4f 4b-	.	4gg-	.
4BB-	.	4a-	.	4f 4b-	.	4aa-	.
4BB-	.	4a-	.	4f 4b-	.	4ff	.
=840	=840	=840	=840	=840	=840	=840	=840
4BB-	.	4a-	.	4f 4b-	.	4ee-	.
4r	.	4a-	.	4f 4b-	.	4ff	.
4r	.	4a-	.	4f 4b-	.	4dd)	.
=841	=841	=841	=841	=841	=841	=841	=841
*MM154	*MM154	*MM154	*MM154	*MM154	*MM154	*MM154	*MM154
2.r	.	2.r	.	2.r	.	2.r	.
=842	=842	=842	=842	=842	=842	=842	=842
4r	.	4r	.	4r	.	4r	.
8.r	.	8.r	.	8.r	.	8.r	.
16e-	pp	16e-	pp	16g	pp	16b-	pp
8d	.	8f	.	8f	.	8b-	.
16r	.	16r	.	16r	.	16r	.
16B-	.	16f	.	16a-	.	16b-	.
=843	=843	=843	=843	=843	=843	=843	=843
4e-	.	4e-	.	4g	.	4b-	.
4e-	.	4e-	.	4g	.	4b-	.
4r	.	4r	.	4r	.	4r	.
=844	=844	=844	=844	=844	=844	=844	=844
4r	.	4r	.	4r	.	2.r	.
8.r	.	8.r	.	8.r	.	.	.
16e-	.	16g	.	16b-	.	.	.
8d	.	8f	.	8b-	.	.	.
16r	.	16r	.	16r	.	.	.
16B-	.	16f	.	16a- 16b-	.	.	.
=845	=845	=845	=845	=845	=845	=845	=845
4e-	.	4g	.	4g 4b-	.	8.r	.
.	.	.	.	.	.	16bb-	.
4e-	.	4g	.	4b-	.	8aa-	.
.	.	.	.	.	.	16r	.
.	.	.	.	.	.	16ff	.
4r	.	4r	.	4r	.	4gg	.
=846	=846	=846	=846	=846	=846	=846	=846
4r	.	4r	.	4r	.	8.r	.
.	.	.	.	.	.	16gg	.
4e-	.	4g	.	4b-	.	8ff	.
.	.	.	.	.	.	16r	.
.	.	.	.	.	.	16dd	.
4r	.	4r	.	4r	.	4ee-	.
=847	=847	=847	=847	=847	=847	=847	=847
4r	.	4r	.	4r	.	8.r	.
.	.	.	.	.	.	16bb-	.
4e-	.	4g	.	4b-	.	8aa-	.
.	.	.	.	.	.	16r	.
.	.	.	.	.	.	16ff	.
8e-	.	8g	.	8b-	.	8gg	.
16r	.	16r	.	16r	.	16r	.
16E-	.	16g	.	16b-	.	16gg	.
=848	=848	=848	=848	=848	=848	=848	=848
8E-	.	8e-	.	8b-	.	8gg	.
16r	.	16r	.	16r	.	16r	.
16E-	.	16e-	.	16b-	.	16gg	.
8AA-	.	8c	.	8cc	.	8ff	.
16r	.	16r	.	16r	.	16r	.
16BB-	.	16a-	.	16a-	.	16dd	.
8E-	.	8g	.	8e-	.	8ee-	.
16r	.	16r	.	16r	.	16r	.
16E-	ff	16E- 16G	ff	16g 16ee-	ff	16ee- 16eee-	ff
=849	=849	=849	=849	=849	=849	=849	=849
4EE-	.	4E- 4G	.	4g 4ee-	.	4ee- 4eee-	.
8EE-	.	8E- 8G	.	8e-	.	8e-	.
8r	.	8r	.	8r	.	8r	.
4r	.	4r	.	4r	.	4r	.
==	==	==	==	==	==	==	==
*-	*-	*-	*-	*-	*-	*-	*-
!!!ENC: Craig Stuart Sapp
!!!END: 2004/09/06/
!!!RWG: No grace notes; no articulations
